;FLAVOR:Marlin
;TIME:13765
;Filament used: 19.5855m
;Layer height: 0.2
;MINX:104.722
;MINY:156.22
;MINZ:0.2
;MAXX:291.029
;MAXY:254.527
;MAXZ:24.8
;TARGET_MACHINE.NAME:Anycubic Kobra Max
;Generated with Cura_SteamEngine 5.9.0
M140 S60
M105
M190 S60
M104 S195
M105
M109 S195
M82 ;absolute extrusion mode
G28 ;Home
G1 Z15.0 F1200 ;Move the platform down 15mm
;Prime the extruder
G92 E0
G1 F200 E3
G92 E0
G92 E0
G92 E0
G1 F2400 E-6
;LAYER_COUNT:124
;LAYER:0
M107
M204 S3000
M205 X10 Y10
G1 F1200 Z0.275
G0 F6000 X230.203 Y254.515 Z0.275
M204 S1000
M205 X8 Y8
;TYPE:SKIRT
G1 F1200 Z0.2
G1 F2400 E0
G1 X229.692 Y254.527 E0.02713
G1 X229.014 Y254.419 E0.06358
G1 X228.528 Y254.288 E0.0903
G1 X227.08 Y253.853 E0.17055
G1 X224.153 Y252.622 E0.33911
G1 X221.572 Y251.626 E0.48597
G1 X219.022 Y250.722 E0.62958
G1 X216.386 Y249.872 E0.7766
G1 X213.812 Y249.12 E0.91895
G1 X211.106 Y248.413 E1.06742
G1 X208.47 Y247.803 E1.21104
G1 X205.782 Y247.261 E1.3566
G1 X203.107 Y246.8 E1.50069
G1 X200.402 Y246.412 E1.64575
G1 X197.655 Y246.097 E1.79253
G1 X194.959 Y245.865 E1.93617
G1 X192.213 Y245.707 E2.08218
G1 X189.466 Y245.626 E2.22806
G1 X186.755 Y245.623 E2.37197
G1 X183.774 Y245.707 E2.53027
G1 X182.334 Y245.768 E2.60678
G1 X181.541 Y245.78 E2.64888
G1 X110.452 Y245.78 E6.42251
G1 X109.768 Y245.77 E6.45882
G1 X109.104 Y245.692 E6.49431
G1 X108.668 Y245.595 E6.51802
G1 X107.934 Y245.358 E6.55896
G1 X107.131 Y244.915 E6.60765
G1 X106.589 Y244.523 E6.64315
G1 X106.002 Y243.94 E6.68707
G1 X105.609 Y243.405 E6.72231
G1 X105.19 Y242.655 E6.76791
G1 X104.889 Y241.794 E6.81633
G1 X104.748 Y241.01 E6.85862
G1 X104.722 Y239.713 E6.92748
G1 X104.722 Y161.943 E11.05576
G1 X104.733 Y161.237 E11.09324
G1 X104.839 Y160.375 E11.13934
G1 X105.12 Y159.499 E11.18818
G1 X105.497 Y158.755 E11.23245
G1 X105.98 Y158.084 E11.27634
G1 X106.475 Y157.588 E11.31353
G1 X107.222 Y157.014 E11.36354
G1 X107.837 Y156.699 E11.40022
G1 X108.697 Y156.382 E11.44888
G1 X109.505 Y156.234 E11.49248
G1 X110.466 Y156.22 E11.5435
G1 X181.551 Y156.22 E15.31692
G1 X182.381 Y156.232 E15.36098
G1 X184.236 Y156.419 E15.45995
G1 X187.017 Y156.649 E15.60808
G1 X189.735 Y156.798 E15.75257
G1 X192.48 Y156.87 E15.89834
G1 X195.229 Y156.864 E16.04426
G1 X197.94 Y156.782 E16.18824
G1 X200.648 Y156.622 E16.33224
G1 X204.691 Y156.244 E16.54779
G1 X205.203 Y156.222 E16.57499
G1 X276.55 Y156.22 E20.36232
G1 X277.233 Y156.23 E20.39858
G1 X278.092 Y156.333 E20.4445
G1 X278.901 Y156.581 E20.48942
G1 X279.655 Y156.966 E20.53436
G1 X280.232 Y157.32 E20.57029
G1 X280.907 Y157.987 E20.62067
G1 X281.242 Y158.375 E20.64788
G1 X281.52 Y158.825 E20.67596
G1 X281.814 Y159.399 E20.71019
G1 X282.044 Y159.977 E20.74321
G1 X282.408 Y161.227 E20.81232
G1 X283.228 Y163.891 E20.96028
G1 X284.106 Y166.477 E21.10525
G1 X285.06 Y169.048 E21.25082
G1 X286.079 Y171.57 E21.39521
G1 X287.168 Y174.061 E21.53953
G1 X288.341 Y176.553 E21.68573
G1 X289.793 Y179.408 E21.85576
G1 X290.007 Y179.941 E21.88625
G1 X290.258 Y180.769 E21.93218
G1 X290.449 Y181.461 E21.97028
G1 X290.551 Y182.007 E21.99977
G1 X290.649 Y182.986 E22.052
G1 X291.01 Y186.109 E22.21888
G1 X291.029 Y186.621 E22.24608
G1 X290.929 Y187.331 E22.28414
G1 X290.599 Y188.518 E22.34954
G1 X290.356 Y189.339 E22.39499
G1 X289.94 Y190.325 E22.45179
G1 X288.885 Y192.919 E22.60044
G1 X287.935 Y195.46 E22.74445
G1 X287.045 Y198.067 E22.89068
G1 X286.244 Y200.643 E23.03388
G1 X285.493 Y203.328 E23.18188
G1 X284.848 Y205.91 E23.32315
G1 X284.241 Y208.673 E23.47331
G1 X283.739 Y211.314 E23.61602
G1 X283.306 Y213.999 E23.76039
G1 X282.945 Y216.725 E23.90636
G1 X282.663 Y219.453 E24.05194
G1 X282.457 Y222.201 E24.19822
G1 X282.333 Y224.874 E24.34026
G1 X282.28 Y228.102 E24.51164
G1 X282.28 Y240.05 E25.14588
G1 X282.27 Y240.733 E25.18214
G1 X282.167 Y241.592 E25.22806
G1 X281.919 Y242.4 E25.27293
G1 X281.535 Y243.154 E25.31784
G1 X281.268 Y243.591 E25.34503
G1 X280.943 Y243.973 E25.37165
G1 X280.51 Y244.41 E25.40431
G1 X280.122 Y244.744 E25.43149
G1 X279.684 Y245.016 E25.45885
G1 X279.124 Y245.305 E25.49231
G1 X278.652 Y245.503 E25.51948
G1 X278.141 Y245.628 E25.5474
G1 X277.52 Y245.728 E25.58079
G1 X277.008 Y245.778 E25.6081
G1 X275.316 Y245.78 E25.69792
G1 X272.522 Y245.82 E25.84625
G1 X269.811 Y245.935 E25.99028
G1 X267.064 Y246.129 E26.13647
G1 X264.334 Y246.4 E26.2821
G1 X261.646 Y246.744 E26.42595
G1 X258.95 Y247.168 E26.57082
G1 X256.253 Y247.669 E26.71643
G1 X253.56 Y248.248 E26.86265
G1 X250.917 Y248.896 E27.00711
G1 X248.281 Y249.621 E27.15223
G1 X245.671 Y250.42 E27.29712
G1 X243.072 Y251.297 E27.44273
G1 X240.497 Y252.248 E27.58844
G1 X237.481 Y253.465 E27.76108
G1 X236.484 Y253.758 E27.81625
G1 X235.709 Y253.964 E27.85881
G1 X235.163 Y254.061 E27.88825
G1 X234.612 Y254.11 E27.91762
G1 X232.926 Y254.235 E28.00736
G1 X230.203 Y254.515 E28.15267
M204 S3000
M205 X10 Y10
G1 F2400 E22.15267
G0 F6000 X277.825 Y243.042
G0 X278.571 Y242.662
G0 X279.162 Y242.071
G0 X279.53 Y241.349
G0 X284.272 Y188.528
M204 S1000
M205 X8 Y8
G1 F2400 E28.15267
G1 X283.318 Y188.249 E28.20543
G1 X282.496 Y187.427 E28.26714
G1 X282.22 Y186.482 E28.3194
G1 X282.5 Y185.522 E28.37248
G1 X282.955 Y185.04 E28.40767
G1 X283.153 Y184.771 E28.4254
G1 X283.283 Y184.463 E28.44314
G1 X283.336 Y184.133 E28.46088
G1 X283.309 Y183.8 E28.47862
G1 X283.204 Y183.483 E28.49635
G1 X282.929 Y183.09 E28.52181
G1 X282.896 Y183.057 E28.52428
G1 X282.685 Y182.334 E28.56426
G1 X282.9 Y181.596 E28.60507
G1 X283.495 Y180.967 E28.65103
G1 X284.262 Y180.752 E28.69331
G1 X285.029 Y180.967 E28.7356
G1 X285.624 Y181.595 E28.78152
G1 X285.842 Y182.344 E28.82293
G1 X285.624 Y183.122 E28.86582
G1 X285.418 Y183.385 E28.88355
G1 X285.281 Y183.689 E28.90125
G1 X285.219 Y184.018 E28.91903
G1 X285.237 Y184.351 E28.93673
G1 X285.333 Y184.671 E28.95446
G1 X285.599 Y185.072 E28.98001
G1 X286.024 Y185.521 E29.01282
G1 X286.307 Y186.493 E29.06656
G1 X286.025 Y187.501 E29.12213
G1 X285.28 Y188.246 E29.17805
G1 X284.272 Y188.528 E29.23362
M204 S3000
M205 X10 Y10
G0 F6000 X284.268 Y189.11
M204 S1000
M205 X8 Y8
G1 F2400 X283.024 Y188.747 E29.30241
G1 X281.998 Y187.721 E29.37943
G1 X281.636 Y186.482 E29.44795
G1 X282 Y185.235 E29.51691
G1 X282.548 Y184.655 E29.55926
G1 X282.694 Y184.442 E29.57297
G1 X282.769 Y184.195 E29.58667
G1 X282.765 Y183.936 E29.60042
G1 X282.683 Y183.691 E29.61414
G1 X282.532 Y183.485 E29.6277
G1 X282.398 Y183.35 E29.63779
G1 X282.101 Y182.334 E29.69398
G1 X282.4 Y181.309 E29.75066
G1 X283.194 Y180.47 E29.81198
G1 X284.262 Y180.171 E29.87085
G1 X285.33 Y180.47 E29.92972
G1 X286.124 Y181.309 E29.99104
G1 X286.424 Y182.34 E30.04804
G1 X286.123 Y183.415 E30.1073
G1 X286.021 Y183.517 E30.11496
G1 X285.869 Y183.726 E30.12868
G1 X285.787 Y183.972 E30.14244
G1 X285.785 Y184.23 E30.15614
G1 X285.86 Y184.477 E30.16984
G1 X286.006 Y184.687 E30.18342
G1 X286.524 Y185.234 E30.22341
G1 X286.89 Y186.488 E30.29275
G1 X286.524 Y187.794 E30.36475
G1 X285.573 Y188.745 E30.43614
G1 X284.268 Y189.11 E30.50807
M204 S3000
M205 X10 Y10
G0 F6000 X284.265 Y189.692
M204 S1000
M205 X8 Y8
G1 F2400 X282.729 Y189.244 E30.59301
G1 X281.501 Y188.016 E30.68519
G1 X281.053 Y186.482 E30.77002
G1 X281.501 Y184.947 E30.85491
G1 X282.141 Y184.27 E30.90436
G1 X282.21 Y184.139 E30.91222
G1 X282.203 Y183.991 E30.92008
G1 X282.135 Y183.88 E30.92699
G1 X281.901 Y183.645 E30.9446
G1 X281.518 Y182.334 E31.0171
G1 X281.901 Y181.021 E31.0897
G1 X282.893 Y179.973 E31.1663
G1 X284.262 Y179.589 E31.24178
G1 X285.631 Y179.973 E31.31725
G1 X286.623 Y181.021 E31.39386
G1 X287.006 Y182.338 E31.46666
G1 X286.622 Y183.707 E31.54214
G1 X286.418 Y183.912 E31.55749
G1 X286.345 Y184.041 E31.56536
G1 X286.348 Y184.19 E31.57327
G1 X286.413 Y184.302 E31.58014
G1 X287.023 Y184.946 E31.62723
G1 X287.472 Y186.485 E31.71233
G1 X287.024 Y188.086 E31.80058
G1 X285.865 Y189.245 E31.88759
G1 X284.265 Y189.692 E31.97577
M204 S3000
M205 X10 Y10
G1 F2400 E25.97577
G0 F6000 X279.664 Y240.787
G0 X279.162 Y242.071
G0 X278.571 Y242.662
G0 X277.9 Y243.004
G0 X229.871 Y250.971
M204 S1000
M205 X8 Y8
G1 F2400 E31.97577
G1 X228.335 Y250.523 E32.06071
G1 X227.107 Y249.295 E32.15289
G1 X226.659 Y247.761 E32.23773
G1 X227.107 Y246.226 E32.32261
G1 X228.269 Y244.999 E32.41231
G1 X229.868 Y244.551 E32.50046
G1 X231.468 Y244.999 E32.58866
G1 X232.466 Y246.051 E32.66564
G1 X232.593 Y246.127 E32.67349
G1 X232.741 Y246.129 E32.68135
G1 X232.872 Y246.051 E32.68944
G1 X233.497 Y245.393 E32.73762
G1 X234.867 Y245.01 E32.81313
G1 X236.238 Y245.393 E32.88869
G1 X237.234 Y246.445 E32.96559
G1 X237.618 Y247.765 E33.03857
G1 X237.234 Y249.136 E33.11415
G1 X236.241 Y250.129 E33.18869
G1 X234.869 Y250.513 E33.26432
G1 X233.554 Y250.129 E33.33704
G1 X232.908 Y249.484 E33.3855
G1 X232.779 Y249.411 E33.39337
G1 X232.631 Y249.413 E33.40122
G1 X232.512 Y249.484 E33.40858
G1 X231.471 Y250.524 E33.48669
G1 X229.871 Y250.971 E33.57488
M204 S3000
M205 X10 Y10
G0 F6000 X229.874 Y250.389
M204 S1000
M205 X8 Y8
G1 F2400 X228.63 Y250.026 E33.64367
G1 X227.604 Y249 E33.72069
G1 X227.242 Y247.761 E33.78921
G1 X227.606 Y246.515 E33.85811
G1 X228.57 Y245.496 E33.93258
G1 X229.868 Y245.133 E34.00412
G1 X231.168 Y245.497 E34.07578
G1 X232.06 Y246.436 E34.14453
G1 X232.265 Y246.594 E34.15827
G1 X232.507 Y246.682 E34.17194
G1 X232.766 Y246.692 E34.1857
G1 X233.015 Y246.624 E34.1994
G1 X233.278 Y246.436 E34.21656
G1 X233.796 Y245.891 E34.25648
G1 X234.867 Y245.591 E34.31552
G1 X235.937 Y245.89 E34.37449
G1 X236.733 Y246.731 E34.43596
G1 X237.035 Y247.769 E34.49335
G1 X236.734 Y248.844 E34.5526
G1 X235.949 Y249.629 E34.61154
G1 X234.872 Y249.931 E34.67091
G1 X233.849 Y249.632 E34.72749
G1 X233.304 Y249.088 E34.76836
G1 X233.095 Y248.935 E34.78211
G1 X232.85 Y248.854 E34.79581
G1 X232.591 Y248.85 E34.80956
G1 X232.344 Y248.926 E34.82328
G1 X232.116 Y249.088 E34.83813
G1 X231.179 Y250.024 E34.90843
G1 X229.874 Y250.389 E34.98036
M204 S3000
M205 X10 Y10
G0 F6000 X229.878 Y249.807
M204 S1000
M205 X8 Y8
G1 F2400 X228.924 Y249.528 E35.03312
G1 X228.102 Y248.706 E35.09483
G1 X227.826 Y247.761 E35.14709
G1 X228.106 Y246.801 E35.20018
G1 X228.871 Y245.993 E35.25924
G1 X229.868 Y245.714 E35.3142
G1 X230.868 Y245.994 E35.36932
G1 X231.654 Y246.822 E35.42993
G1 X231.911 Y247.035 E35.44764
G1 X232.211 Y247.181 E35.46535
G1 X232.538 Y247.252 E35.48312
G1 X232.872 Y247.243 E35.50085
G1 X233.194 Y247.156 E35.51856
G1 X233.487 Y246.994 E35.53633
G1 X233.684 Y246.822 E35.55021
G1 X234.096 Y246.388 E35.58198
G1 X234.867 Y246.172 E35.62448
G1 X235.637 Y246.388 E35.66693
G1 X236.235 Y247.02 E35.71312
G1 X236.453 Y247.771 E35.75463
G1 X236.235 Y248.551 E35.79762
G1 X235.656 Y249.13 E35.84109
G1 X234.876 Y249.348 E35.88408
G1 X234.143 Y249.134 E35.92462
G1 X233.699 Y248.691 E35.95791
G1 X233.436 Y248.485 E35.97564
G1 X233.132 Y248.347 E35.99337
G1 X232.804 Y248.285 E36.01109
G1 X232.47 Y248.303 E36.02884
G1 X232.15 Y248.399 E36.04658
G1 X231.862 Y248.568 E36.0643
G1 X231.721 Y248.692 E36.07427
G1 X230.888 Y249.525 E36.1368
G1 X229.878 Y249.807 E36.19247
M204 S3000
M205 X10 Y10
G0 F6000 X229.882 Y249.304
M204 S1000
M205 X8 Y8
;TYPE:SUPPORT
G1 F3780 X229.177 Y249.098 E36.22032
G1 X228.526 Y248.45 E36.25514
G1 X228.325 Y247.761 E36.28236
G1 X228.535 Y247.047 E36.31058
G1 X229.128 Y246.418 E36.34335
G1 X229.869 Y246.212 E36.37251
G1 X230.609 Y246.418 E36.40164
G1 X231.924 Y247.804 E36.47408
G1 X230.635 Y249.093 E36.5432
G1 X229.882 Y249.304 E36.57285
M204 S3000
M205 X10 Y10
G1 F2400 E30.57285
G0 F6000 X277.825 Y243.042
G0 X278.571 Y242.662
G0 X279.162 Y242.071
G0 X279.53 Y241.349
G0 X284.291 Y183.775
M204 S1000
M205 X8 Y8
G1 F2400 E36.57285
G1 F3780 X283.318 Y182.799 E36.62511
G1 X283.185 Y182.333 E36.64348
G1 X283.327 Y181.842 E36.66286
G1 X283.752 Y181.39 E36.68639
G1 X284.26 Y181.248 E36.70639
G1 X284.768 Y181.39 E36.72639
G1 X285.193 Y181.843 E36.74994
G1 X285.339 Y182.346 E36.7698
G1 X285.193 Y182.871 E36.79046
G1 X284.291 Y183.775 E36.83888
M204 S3000
M205 X10 Y10
G1 F2400 E30.83888
G0 F6000 X283.57 Y187.822
M204 S1000
M205 X8 Y8
G1 F2400 E36.83888
G1 F3780 X282.922 Y187.171 E36.87371
G1 X282.721 Y186.479 E36.90103
G1 X282.927 Y185.767 E36.92913
G1 X284.26 Y184.354 E37.00279
G1 X285.593 Y185.767 E37.07644
G1 X285.807 Y186.494 E37.10518
G1 X285.597 Y187.247 E37.13482
G1 X285.027 Y187.817 E37.16538
G1 X284.274 Y188.028 E37.19503
G1 X283.57 Y187.822 E37.22285
M204 S3000
M205 X10 Y10
G1 F2400 E31.22285
;MESH:auto tuner encasing top 4.STL
G0 F6000 X279.542 Y160.675
G0 X279.162 Y159.929
G0 X278.571 Y159.338
G0 X277.849 Y158.97
G0 X204.948 Y158.836
G0 X204.175 Y158.958
G0 X203.429 Y159.338
G0 X202.95 Y159.817
G0 X184.667 Y187.822
G0 X183.572 Y187.822
G0 X175.04 Y182.26
M204 S1000
M205 X8 Y8
;TYPE:WALL-INNER
G1 F2400 E37.22285
G1 F2700 X174.407 Y182.38 E37.25705
G1 X173.623 Y182.384 E37.29866
G1 X172.996 Y182.268 E37.33251
G1 X172.381 Y182.048 E37.36718
G1 X171.762 Y181.698 E37.40493
G1 X171.225 Y181.25 E37.44205
G1 X170.777 Y180.696 E37.47987
G1 X170.466 Y180.16 E37.51277
G1 X170.229 Y179.509 E37.54955
G1 X170.119 Y178.898 E37.5825
G1 X170.123 Y178.067 E37.62661
G1 X170.238 Y177.442 E37.66035
G1 X170.475 Y176.816 E37.69588
G1 X170.81 Y176.245 E37.73102
G1 X171.243 Y175.74 E37.76633
G1 X171.748 Y175.314 E37.8014
G1 X172.329 Y174.972 E37.83719
G1 X172.962 Y174.737 E37.87303
G1 X173.6 Y174.616 E37.90751
G1 X174.002 Y174.637 E37.92887
G1 X174.317 Y174.599 E37.94572
G1 X175.04 Y174.736 E37.98478
G1 X175.686 Y174.97 E38.02125
G1 X176.342 Y175.384 E38.06243
G1 X176.84 Y175.83 E38.09791
G1 X177.116 Y176.158 E38.12067
G1 X177.535 Y176.832 E38.1628
G1 X177.784 Y177.565 E38.20389
G1 X177.888 Y178.248 E38.24057
G1 X177.888 Y178.748 E38.26711
G1 X177.784 Y179.431 E38.30378
G1 X177.574 Y180.054 E38.33868
G1 X177.255 Y180.643 E38.37424
G1 X176.765 Y181.265 E38.41627
G1 X176.153 Y181.746 E38.45759
G1 X175.559 Y182.072 E38.49356
G1 X175.04 Y182.26 E38.52286
M204 S3000
M205 X10 Y10
G0 F6000 X174.893 Y181.719
M204 S1000
M205 X8 Y8
G1 F2700 X174.313 Y181.822 E38.55413
G1 X174.002 Y181.778 E38.5708
G1 X173.679 Y181.826 E38.58814
G1 X173.083 Y181.711 E38.62036
G1 X172.601 Y181.533 E38.64763
G1 X172.106 Y181.248 E38.67795
G1 X171.635 Y180.865 E38.71018
G1 X171.248 Y180.394 E38.74254
G1 X170.994 Y179.956 E38.76941
G1 X170.774 Y179.395 E38.8014
G1 X170.673 Y178.806 E38.83312
G1 X170.71 Y178.498 E38.84959
G1 X170.678 Y178.139 E38.86872
G1 X170.771 Y177.634 E38.89598
G1 X170.97 Y177.09 E38.92673
G1 X171.255 Y176.592 E38.95719
G1 X171.639 Y176.137 E38.98879
G1 X172.073 Y175.771 E39.01893
G1 X172.57 Y175.477 E39.04958
G1 X173.11 Y175.277 E39.08015
G1 X173.689 Y175.174 E39.11137
G1 X174.002 Y175.216 E39.12813
G1 X174.226 Y175.172 E39.14025
G1 X174.893 Y175.277 E39.17609
G1 X175.432 Y175.474 E39.20656
G1 X175.868 Y175.732 E39.23345
G1 X176.309 Y176.089 E39.26357
G1 X176.736 Y176.574 E39.29787
G1 X177.048 Y177.137 E39.33204
G1 X177.234 Y177.67 E39.362
G1 X177.328 Y178.248 E39.39309
G1 X177.287 Y178.498 E39.40654
G1 X177.328 Y178.748 E39.41999
G1 X177.234 Y179.326 E39.45107
G1 X177.048 Y179.86 E39.48109
G1 X176.771 Y180.362 E39.51152
G1 X176.363 Y180.869 E39.54607
G1 X175.868 Y181.264 E39.57968
G1 X175.363 Y181.547 E39.61041
G1 X174.893 Y181.719 E39.63698
M204 S3000
M205 X10 Y10
G0 F6000 X174.905 Y181.79
G0 X182.013 Y241.1
M204 S1000
M205 X8 Y8
G1 F2700 X182.302 Y241.005 E39.65313
G1 X182.473 Y240.836 E39.66589
G1 X182.6 Y240.538 E39.68309
G1 X182.6 Y161.601 E43.87331
G1 X182.555 Y161.318 E43.88853
G1 X182.475 Y161.161 E43.89788
G1 X182.34 Y161.026 E43.90801
G1 X182.046 Y160.9 E43.92499
G1 X110.106 Y160.9 E47.7438
