;FLAVOR:Marlin
;TIME:13489
;Filament used: 19.1204m
;Layer height: 0.2
;MINX:124.72
;MINY:156.22
;MINZ:0.2
;MAXX:298.763
;MAXY:252.265
;MAXZ:23.8
;TARGET_MACHINE.NAME:Anycubic Kobra Max
;Generated with Cura_SteamEngine 5.9.0
M140 S60
M105
M190 S60
M104 S195
M105
M109 S195
M82 ;absolute extrusion mode
G28 ;Home
G1 Z15.0 F1200 ;Move the platform down 15mm
;Prime the extruder
G92 E0
G1 F200 E3
G92 E0
G92 E0
G92 E0
G1 F2400 E-6
;LAYER_COUNT:119
;LAYER:0
M107
M204 S3000
M205 X10 Y10
G1 F1200 Z0.275
G0 F6000 X245.034 Y252.151 Z0.275
M204 S1000
M205 X8 Y8
;TYPE:SKIRT
G1 F1200 Z0.2
G1 F2400 E0
G1 X244.403 Y252.265 E0.03404
G1 X243.135 Y252.234 E0.10137
G1 X240.345 Y252.206 E0.24948
G1 X237.551 Y252.257 E0.39782
G1 X236.903 Y252.219 E0.43227
G1 X235.836 Y251.921 E0.49108
G1 X234.986 Y251.657 E0.53833
G1 X232.804 Y250.889 E0.66112
G1 X230.206 Y250.051 E0.80603
G1 X227.585 Y249.285 E0.95098
G1 X224.955 Y248.597 E1.09528
G1 X222.231 Y247.967 E1.2437
G1 X219.588 Y247.433 E1.38683
G1 X216.883 Y246.966 E1.53255
G1 X214.211 Y246.581 E1.67585
G1 X211.466 Y246.267 E1.82251
G1 X208.751 Y246.032 E1.96717
G1 X206.01 Y245.874 E2.11292
G1 X203.251 Y245.792 E2.25944
G1 X201.759 Y245.78 E2.33864
G1 X130.45 Y245.78 E6.12395
G1 X129.765 Y245.77 E6.16031
G1 X128.898 Y245.668 E6.20665
G1 X127.991 Y245.38 E6.25717
G1 X127.243 Y244.999 E6.30173
G1 X126.567 Y244.506 E6.34614
G1 X126.086 Y244.023 E6.38233
G1 X125.526 Y243.299 E6.43092
G1 X125.213 Y242.695 E6.46703
G1 X124.885 Y241.82 E6.51663
G1 X124.735 Y241.009 E6.56041
G1 X124.72 Y240.041 E6.6118
G1 X124.72 Y161.95 E10.75712
G1 X124.73 Y161.266 E10.79343
G1 X124.809 Y160.6 E10.82903
G1 X125.079 Y159.596 E10.88422
G1 X125.489 Y158.766 E10.93336
G1 X125.973 Y158.091 E10.97746
G1 X126.574 Y157.487 E11.02269
G1 X127.242 Y157.002 E11.06651
G1 X127.843 Y156.697 E11.10228
G1 X128.721 Y156.375 E11.15192
G1 X129.51 Y156.234 E11.19447
G1 X130.464 Y156.22 E11.24512
G1 X201.548 Y156.22 E15.01848
G1 X202.254 Y156.23 E15.05596
G1 X203.061 Y156.263 E15.09884
G1 X204.465 Y156.343 E15.17349
G1 X207.213 Y156.422 E15.31942
G1 X209.926 Y156.424 E15.46343
G1 X212.691 Y156.347 E15.61027
G1 X215.3 Y156.221 E15.74892
G1 X286.546 Y156.22 E19.53088
G1 X287.214 Y156.229 E19.56635
G1 X288.061 Y156.328 E19.61161
G1 X288.849 Y156.568 E19.65534
G1 X289.613 Y156.944 E19.70054
G1 X290.053 Y157.205 E19.7277
G1 X290.473 Y157.557 E19.75679
G1 X290.91 Y157.99 E19.78944
G1 X291.244 Y158.378 E19.81662
G1 X291.516 Y158.816 E19.84399
G1 X291.805 Y159.376 E19.87744
G1 X292.003 Y159.848 E19.90461
G1 X292.129 Y160.36 E19.9326
G1 X292.628 Y163.471 E20.09985
G1 X293.135 Y166.167 E20.24548
G1 X293.714 Y168.832 E20.39024
G1 X294.364 Y171.463 E20.5341
G1 X295.1 Y174.117 E20.6803
G1 X295.908 Y176.739 E20.82595
G1 X296.785 Y179.321 E20.9707
G1 X298.203 Y183.104 E21.18515
G1 X298.42 Y183.81 E21.22436
G1 X298.64 Y184.602 E21.268
G1 X298.763 Y185.232 E21.30207
G1 X298.742 Y186.825 E21.38664
G1 X298.75 Y186.927 E21.39207
G1 X298.731 Y188.287 E21.46427
G1 X298.759 Y190.829 E21.59921
G1 X298.716 Y191.455 E21.63252
G1 X298.445 Y192.474 E21.68849
G1 X298.224 Y193.227 E21.73015
G1 X297.044 Y196.659 E21.9228
G1 X296.241 Y199.24 E22.06629
G1 X295.502 Y201.884 E22.21202
G1 X294.822 Y204.614 E22.36136
G1 X294.252 Y207.206 E22.50224
G1 X293.739 Y209.905 E22.64808
G1 X293.306 Y212.593 E22.79261
G1 X292.943 Y215.34 E22.93969
G1 X292.665 Y218.018 E23.08261
G1 X292.458 Y220.788 E23.23006
G1 X292.333 Y223.468 E23.37248
G1 X292.28 Y226.694 E23.54375
G1 X292.28 Y240.046 E24.25252
G1 X292.271 Y240.715 E24.28803
G1 X292.172 Y241.562 E24.3333
G1 X291.933 Y242.348 E24.37691
G1 X291.556 Y243.113 E24.42218
G1 X291.295 Y243.553 E24.44934
G1 X290.943 Y243.973 E24.47843
G1 X290.51 Y244.41 E24.51108
G1 X290.122 Y244.744 E24.53826
G1 X289.684 Y245.016 E24.56563
G1 X289.124 Y245.305 E24.59908
G1 X288.652 Y245.503 E24.62625
G1 X288.144 Y245.628 E24.65402
G1 X287.526 Y245.728 E24.68725
G1 X287.007 Y245.778 E24.71493
G1 X280.017 Y245.78 E25.08598
G1 X277.222 Y245.82 E25.23437
G1 X274.511 Y245.935 E25.3784
G1 X271.764 Y246.129 E25.52459
G1 X269.034 Y246.4 E25.67022
G1 X266.346 Y246.744 E25.81407
G1 X263.65 Y247.168 E25.95894
G1 X260.953 Y247.669 E26.10455
G1 X258.26 Y248.248 E26.25077
G1 X255.617 Y248.896 E26.39523
G1 X252.981 Y249.621 E26.54035
G1 X250.39 Y250.415 E26.6842
G1 X246.758 Y251.66 E26.88801
G1 X245.718 Y251.971 E26.94564
G1 X245.034 Y252.151 E26.98318
M204 S3000
M205 X10 Y10
G1 F2400 E20.98318
G1 F1200 Z0.275
G0 F6000 X272.953 Y220.221 Z0.275
M204 S1000
M205 X8 Y8
G1 F1200 Z0.2
G1 F2400 E26.98318
G1 X272.937 Y220.28 E26.98643
G1 X272.88 Y220.337 E26.9907
G1 X272.823 Y220.353 E26.99385
G1 X272.705 Y220.318 E27.00038
G1 X272.449 Y220.283 E27.0141
G1 X272.367 Y220.297 E27.01851
G1 X272.369 Y220.287 E27.01905
G1 X272.369 Y219.872 E27.04108
G1 X272.462 Y219.91 E27.04642
G1 X272.556 Y219.936 E27.05159
G1 X272.645 Y220.005 E27.05757
G1 X272.828 Y220.08 E27.06807
G1 X272.871 Y220.092 E27.07044
G1 X272.936 Y220.16 E27.07543
G1 X272.953 Y220.221 E27.07879
M204 S3000
M205 X10 Y10
G0 F6000 X272.817 Y220.936
M204 S1000
M205 X8 Y8
G1 F2400 X272.546 Y220.855 E27.09381
G1 X272.397 Y220.852 E27.10172
G1 X272.269 Y220.924 E27.10952
G1 X272.129 Y221.063 E27.11999
G1 X271.963 Y221.11 E27.12915
G1 X271.626 Y221.053 E27.14729
G1 X271.471 Y220.926 E27.15793
G1 X271.427 Y220.804 E27.16481
G1 X271.467 Y220.69 E27.17122
G1 X271.701 Y220.508 E27.18696
G1 X271.79 Y220.389 E27.19485
G1 X271.809 Y220.287 E27.20036
G1 X271.809 Y219.722 E27.23035
G1 X271.728 Y219.525 E27.24165
G1 X271.545 Y219.34 E27.25547
G1 X271.456 Y219.131 E27.26753
G1 X271.481 Y218.976 E27.27586
G1 X271.57 Y218.88 E27.28281
G1 X271.73 Y218.858 E27.29138
G1 X271.956 Y218.95 E27.30434
G1 X272.132 Y219.127 E27.31759
G1 X272.33 Y219.209 E27.32896
G1 X272.402 Y219.209 E27.33278
G1 X272.485 Y219.295 E27.33913
G1 X272.612 Y219.371 E27.34698
G1 X272.815 Y219.428 E27.35818
G1 X272.848 Y219.462 E27.36069
G1 X272.977 Y219.54 E27.36869
G1 X273.17 Y219.593 E27.37932
G1 X273.435 Y219.874 E27.39982
G1 X273.535 Y220.218 E27.41884
G1 X273.437 Y220.572 E27.43834
G1 X273.172 Y220.837 E27.45823
G1 X272.817 Y220.936 E27.47779
M204 S3000
M205 X10 Y10
G1 F2400 E21.47779
G0 F6000 X273.789 Y223.917
M204 S1000
M205 X8 Y8
G1 F2400 E27.47779
G1 X273.735 Y224.079 E27.48686
G1 X273.712 Y224.068 E27.48821
G1 X273.515 Y224.038 E27.49879
G1 X273.463 Y223.999 E27.50224
G1 X273.28 Y223.926 E27.5127
G1 X273.047 Y223.864 E27.5255
G1 X272.867 Y223.733 E27.53732
G1 X272.81 Y223.714 E27.54051
G1 X272.9 Y223.637 E27.54679
G1 X273.069 Y223.459 E27.55982
G1 X273.122 Y223.444 E27.56275
G1 X273.267 Y223.486 E27.57076
G1 X273.524 Y223.519 E27.58451
G1 X273.731 Y223.486 E27.59564
G1 X273.876 Y223.444 E27.60365
G1 X273.928 Y223.459 E27.60653
G1 X273.996 Y223.53 E27.61175
G1 X274.013 Y223.59 E27.61506
G1 X273.996 Y223.652 E27.61847
G1 X273.941 Y223.707 E27.6226
G1 X273.789 Y223.917 E27.63636
M204 S3000
M205 X10 Y10
G0 F6000 X274.231 Y224.78
M204 S1000
M205 X8 Y8
G1 F2400 X274.114 Y224.926 E27.64629
G1 X273.98 Y224.972 E27.65381
G1 X273.863 Y224.93 E27.66041
G1 X273.687 Y224.701 E27.67574
G1 X273.569 Y224.611 E27.68362
G1 X273.465 Y224.591 E27.68924
G1 X273.311 Y224.591 E27.69742
G1 X273.266 Y224.544 E27.70087
G1 X273.136 Y224.467 E27.70889
G1 X272.768 Y224.369 E27.72911
G1 X272.68 Y224.281 E27.73571
G1 X272.551 Y224.208 E27.74358
G1 X272.427 Y224.205 E27.75016
G1 X272.05 Y224.281 E27.77058
G1 X271.833 Y224.217 E27.78259
G1 X271.809 Y224.193 E27.78439
G1 X271.809 Y224.06 E27.79145
G1 X271.77 Y223.917 E27.79932
G1 X271.708 Y223.844 E27.8044
G1 X271.5 Y223.672 E27.81873
G1 X271.458 Y223.55 E27.82558
G1 X271.501 Y223.428 E27.83245
G1 X271.644 Y223.303 E27.84253
G1 X271.959 Y223.246 E27.85952
G1 X272.206 Y223.325 E27.87329
G1 X272.354 Y223.331 E27.88115
G1 X272.494 Y223.251 E27.88971
G1 X272.769 Y222.962 E27.91089
G1 X273.122 Y222.862 E27.93036
G1 X273.422 Y222.948 E27.94693
G1 X273.576 Y222.948 E27.9551
G1 X273.876 Y222.862 E27.97167
G1 X274.228 Y222.962 E27.99109
G1 X274.495 Y223.244 E28.01171
G1 X274.595 Y223.587 E28.03067
G1 X274.495 Y223.944 E28.05035
G1 X274.338 Y224.102 E28.06218
G1 X274.264 Y224.232 E28.07012
G1 X274.259 Y224.337 E28.0757
G1 X274.286 Y224.538 E28.08646
G1 X274.231 Y224.78 E28.09964
M204 S3000
M205 X10 Y10
G1 F2400 E22.09964
G0 F6000 X276.244 Y224.898
M204 S1000
M205 X8 Y8
G1 F2400 E28.09964
G1 X276.113 Y224.943 E28.10699
G1 X275.988 Y224.9 E28.11401
G1 X275.863 Y224.746 E28.12454
G1 X275.806 Y224.438 E28.14116
G1 X275.852 Y224.281 E28.14985
G1 X275.965 Y224.162 E28.15856
G1 X275.971 Y224.16 E28.15889
G1 X276.101 Y224.083 E28.16691
G1 X276.25 Y223.927 E28.17837
G1 X276.588 Y223.837 E28.19693
G1 X276.716 Y223.763 E28.20478
G1 X276.785 Y223.646 E28.21199
G1 X276.903 Y223.244 E28.23423
G1 X277.168 Y222.963 E28.25473
G1 X277.521 Y222.864 E28.2742
G1 X277.6 Y222.887 E28.27856
G1 X277.758 Y222.887 E28.28695
G1 X277.837 Y222.864 E28.29132
G1 X278.19 Y222.963 E28.31078
G1 X278.455 Y223.244 E28.33128
G1 X278.556 Y223.59 E28.35042
G1 X278.472 Y223.887 E28.3668
G1 X278.471 Y224.035 E28.37466
G1 X278.529 Y224.146 E28.38131
G1 X278.636 Y224.271 E28.39004
G1 X278.685 Y224.439 E28.39933
G1 X278.627 Y224.787 E28.41806
G1 X278.516 Y224.926 E28.4275
G1 X278.38 Y224.972 E28.43512
G1 X278.263 Y224.93 E28.44172
G1 X278.087 Y224.701 E28.45705
G1 X277.969 Y224.611 E28.46493
G1 X277.865 Y224.591 E28.47055
G1 X277.711 Y224.591 E28.47873
G1 X277.666 Y224.544 E28.48218
G1 X277.533 Y224.467 E28.49034
G1 X277.221 Y224.388 E28.50742
G1 X277.072 Y224.391 E28.51533
G1 X276.946 Y224.469 E28.5232
G1 X276.884 Y224.582 E28.53004
G1 X276.875 Y224.591 E28.53072
G1 X276.623 Y224.591 E28.54409
G1 X276.48 Y224.63 E28.55196
G1 X276.404 Y224.697 E28.55734
G1 X276.244 Y224.898 E28.57098
M204 S3000
M205 X10 Y10
G1 F2400 E22.57098
G0 F6000 X277.909 Y224.034
M204 S1000
M205 X8 Y8
G1 F2400 E28.57098
G1 X277.863 Y223.999 E28.57405
G1 X277.67 Y223.924 E28.58504
G1 X277.358 Y223.845 E28.60212
G1 X277.303 Y223.84 E28.60505
G1 X277.322 Y223.804 E28.60721
G1 X277.403 Y223.53 E28.62238
G1 X277.468 Y223.46 E28.62745
G1 X277.548 Y223.438 E28.63186
G1 X277.699 Y223.458 E28.63994
G1 X277.816 Y223.44 E28.64623
G1 X277.89 Y223.46 E28.65029
G1 X277.955 Y223.53 E28.65537
G1 X277.973 Y223.592 E28.65879
G1 X277.933 Y223.735 E28.66667
G1 X277.901 Y223.992 E28.68042
G1 X277.909 Y224.034 E28.68269
M204 S3000
M205 X10 Y10
G1 F2400 E22.68269
G0 F6000 X280.644 Y224.898
M204 S1000
M205 X8 Y8
G1 F2400 E28.68269
G1 X280.513 Y224.943 E28.69004
G1 X280.388 Y224.9 E28.69706
G1 X280.263 Y224.746 E28.70759
G1 X280.206 Y224.438 E28.72422
G1 X280.252 Y224.281 E28.7329
G1 X280.365 Y224.162 E28.74161
G1 X280.371 Y224.16 E28.74195
G1 X280.502 Y224.082 E28.75004
G1 X280.651 Y223.925 E28.76153
G1 X280.761 Y223.895 E28.76758
G1 X280.889 Y223.819 E28.77549
G1 X280.96 Y223.689 E28.78335
G1 X280.956 Y223.615 E28.78728
G1 X281.065 Y223.244 E28.80781
G1 X281.332 Y222.962 E28.82842
G1 X281.685 Y222.862 E28.8479
G1 X282.038 Y222.962 E28.86738
G1 X282.305 Y223.244 E28.88799
G1 X282.36 Y223.433 E28.89844
G1 X282.424 Y223.545 E28.90529
G1 X282.471 Y223.595 E28.90893
G1 X282.523 Y223.775 E28.91888
G1 X282.591 Y223.892 E28.92606
G1 X282.691 Y223.995 E28.93368
G1 X282.691 Y224.069 E28.93761
G1 X282.768 Y224.262 E28.94864
G1 X282.954 Y224.457 E28.96294
G1 X283.043 Y224.668 E28.9751
G1 X283.019 Y224.834 E28.984
G1 X282.934 Y224.919 E28.99038
G1 X282.768 Y224.943 E28.99929
G1 X282.56 Y224.855 E29.01128
G1 X282.375 Y224.672 E29.02509
G1 X282.178 Y224.591 E29.0364
G1 X282.106 Y224.591 E29.04022
G1 X282.054 Y224.54 E29.04408
G1 X281.93 Y224.47 E29.05164
G1 X281.624 Y224.388 E29.06846
G1 X281.476 Y224.388 E29.07632
G1 X281.349 Y224.465 E29.0842
G1 X281.284 Y224.582 E29.0913
G1 X281.275 Y224.591 E29.09198
G1 X281.023 Y224.591 E29.10536
G1 X280.88 Y224.63 E29.11323
G1 X280.804 Y224.697 E29.1186
G1 X280.644 Y224.898 E29.13224
M204 S3000
M205 X10 Y10
G1 F2400 E23.13224
G0 F6000 X281.976 Y223.903
M204 S1000
M205 X8 Y8
G1 F2400 E29.13224
G1 X281.769 Y223.847 E29.14362
G1 X281.512 Y223.819 E29.15735
G1 X281.493 Y223.823 E29.15838
G1 X281.525 Y223.682 E29.16605
G1 X281.523 Y223.67 E29.1667
G1 X281.565 Y223.53 E29.17446
G1 X281.632 Y223.459 E29.17964
G1 X281.685 Y223.444 E29.18256
G1 X281.738 Y223.459 E29.18549
G1 X281.805 Y223.53 E29.19067
G1 X281.823 Y223.59 E29.19399
G1 X281.933 Y223.824 E29.20772
G1 X281.965 Y223.865 E29.21048
G1 X281.976 Y223.903 E29.21258
M204 S3000
M205 X10 Y10
G1 F2400 E23.21258
G0 F6000 X280.985 Y220.836
M204 S1000
M205 X8 Y8
G1 F2400 E29.21258
G1 X280.628 Y220.935 E29.23225
G1 X280.274 Y220.831 E29.25183
G1 X280.119 Y220.831 E29.26006
G1 X279.748 Y220.936 E29.28053
G1 X279.405 Y220.835 E29.29951
G1 X279.123 Y220.553 E29.32068
G1 X279.023 Y220.215 E29.33939
G1 X279.115 Y219.901 E29.35676
G1 X279.116 Y219.834 E29.36031
G1 X279.19 Y219.802 E29.36459
G1 X279.389 Y219.592 E29.37995
G1 X279.741 Y219.492 E29.39938
G1 X279.852 Y219.524 E29.40551
G1 X280.001 Y219.526 E29.41342
G1 X280.129 Y219.452 E29.42127
G1 X280.203 Y219.318 E29.42939
G1 X280.27 Y219.028 E29.44519
G1 X280.389 Y218.874 E29.45552
G1 X280.519 Y218.828 E29.46284
G1 X280.648 Y218.873 E29.4701
G1 X280.808 Y219.094 E29.48458
G1 X280.924 Y219.186 E29.49244
G1 X281.035 Y219.209 E29.49846
G1 X281.189 Y219.209 E29.50663
G1 X281.193 Y219.223 E29.5074
G1 X281.272 Y219.349 E29.5153
G1 X281.387 Y219.412 E29.52226
G1 X281.444 Y219.427 E29.52539
G1 X281.671 Y219.666 E29.54289
G1 X281.798 Y219.743 E29.55077
G1 X281.947 Y219.743 E29.55868
G1 X282.077 Y219.666 E29.5667
G1 X282.169 Y219.57 E29.57376
G1 X282.451 Y219.519 E29.58897
G1 X282.68 Y219.583 E29.60159
G1 X282.691 Y219.595 E29.60246
G1 X282.691 Y219.736 E29.60994
G1 X282.73 Y219.879 E29.61781
G1 X282.791 Y219.951 E29.62282
G1 X283.001 Y220.127 E29.63736
G1 X283.043 Y220.247 E29.64411
G1 X282.998 Y220.382 E29.65167
G1 X282.859 Y220.496 E29.66121
G1 X282.538 Y220.553 E29.67851
G1 X282.383 Y220.508 E29.68708
G1 X282.312 Y220.437 E29.69241
G1 X282.185 Y220.365 E29.70016
G1 X282.045 Y220.226 E29.71063
G1 X281.916 Y220.153 E29.7185
G1 X281.768 Y220.157 E29.72636
G1 X281.65 Y220.227 E29.73364
G1 X281.448 Y220.429 E29.74881
G1 X281.442 Y220.431 E29.74914
G1 X281.32 Y220.502 E29.75664
G1 X280.985 Y220.836 E29.78175
M204 S3000
M205 X10 Y10
G0 F6000 X280.693 Y220.336
M204 S1000
M205 X8 Y8
G1 F2400 X280.632 Y220.353 E29.78511
G1 X280.432 Y220.294 E29.79618
G1 X280.176 Y220.26 E29.80989
G1 X279.967 Y220.292 E29.82111
G1 X279.751 Y220.353 E29.83303
G1 X279.7 Y220.338 E29.83585
G1 X279.62 Y220.258 E29.84185
G1 X279.607 Y220.213 E29.84434
G1 X279.622 Y220.161 E29.84721
G1 X279.69 Y220.089 E29.85247
G1 X279.757 Y220.07 E29.85617
G1 X279.953 Y220.095 E29.86665
G1 X280.208 Y220.048 E29.88042
G1 X280.435 Y219.926 E29.8941
G1 X280.615 Y219.741 E29.9078
G1 X280.65 Y219.664 E29.91229
G1 X280.767 Y219.725 E29.91929
G1 X280.889 Y219.745 E29.92586
G1 X280.946 Y219.806 E29.93029
G1 X281.109 Y219.887 E29.93995
G1 X281.152 Y219.933 E29.94329
G1 X281.111 Y219.974 E29.94637
G1 X281.058 Y219.998 E29.94946
G1 X280.925 Y220.105 E29.95852
G1 X280.693 Y220.336 E29.9759
M204 S3000
M205 X10 Y10
G1 F2400 E23.9759
G0 F6000 X277.287 Y220.572
M204 S1000
M205 X8 Y8
G1 F2400 E29.9759
G1 X277.022 Y220.837 E29.99579
G1 X276.668 Y220.935 E30.01529
G1 X276.327 Y220.835 E30.03416
G1 X276.045 Y220.553 E30.05533
G1 X275.945 Y220.214 E30.07409
G1 X276.031 Y219.917 E30.0905
G1 X276.033 Y219.769 E30.09836
G1 X275.974 Y219.656 E30.10512
G1 X275.865 Y219.529 E30.11401
G1 X275.815 Y219.361 E30.12331
