;FLAVOR:Marlin
;TIME:13689
;Filament used: 19.5909m
;Layer height: 0.2
;MINX:119.72
;MINY:156.22
;MINZ:0.2
;MAXX:292.28
;MAXY:254.587
;MAXZ:24.8
;TARGET_MACHINE.NAME:Anycubic Kobra Max
;Generated with Cura_SteamEngine 5.9.0
M140 S60
M105
M190 S60
M104 S195
M105
M109 S195
M82 ;absolute extrusion mode
G28 ;Home
G1 Z15.0 F1200 ;Move the platform down 15mm
;Prime the extruder
G92 E0
G1 F200 E3
G92 E0
G92 E0
G92 E0
G1 F2400 E-6
;LAYER_COUNT:124
;LAYER:0
M107
M204 S3000
M205 X10 Y10
G1 F1200 Z0.275
G0 F6000 X154.23 Y254.477 Z0.275
M204 S1000
M205 X8 Y8
;TYPE:SKIRT
G1 F1200 Z0.2
G1 F2400 E0
G1 X153.727 Y254.571 E0.02716
G1 X153.143 Y254.587 E0.05818
G1 X152.181 Y254.455 E0.10972
G1 X150.759 Y254.239 E0.18607
G1 X149.102 Y254.013 E0.27484
G1 X148.099 Y253.733 E0.33012
G1 X147.127 Y253.435 E0.38409
G1 X146.251 Y253.022 E0.4355
G1 X143.759 Y251.892 E0.58075
G1 X141.243 Y250.836 E0.72559
G1 X138.698 Y249.85 E0.87047
G1 X136.115 Y248.933 E1.01597
G1 X133.495 Y248.086 E1.16213
G1 X130.893 Y247.326 E1.30603
G1 X128.242 Y246.632 E1.45149
G1 X125.773 Y246.057 E1.58606
G1 X123.684 Y245.598 E1.6996
G1 X123.109 Y245.423 E1.7315
G1 X122.349 Y245.037 E1.77675
G1 X121.912 Y244.77 E1.80394
G1 X121.524 Y244.44 E1.83098
G1 X121.088 Y244.007 E1.86359
G1 X120.754 Y243.619 E1.89077
G1 X120.483 Y243.182 E1.91807
G1 X120.194 Y242.621 E1.95157
G1 X119.996 Y242.149 E1.97874
G1 X119.871 Y241.639 E2.00661
G1 X119.771 Y241.016 E2.0401
G1 X119.722 Y240.493 E2.06799
G1 X119.72 Y161.929 E6.23841
G1 X119.73 Y161.266 E6.27361
G1 X119.83 Y160.422 E6.31873
G1 X120.071 Y159.635 E6.36242
G1 X120.45 Y158.874 E6.40755
G1 X120.713 Y158.435 E6.43471
G1 X121.06 Y158.024 E6.46327
G1 X121.493 Y157.588 E6.49589
G1 X121.881 Y157.254 E6.52306
G1 X122.316 Y156.984 E6.55024
G1 X122.876 Y156.695 E6.58369
G1 X123.348 Y156.497 E6.61086
G1 X123.859 Y156.372 E6.63879
G1 X124.48 Y156.272 E6.67218
G1 X124.995 Y156.222 E6.69964
G1 X196.549 Y156.22 E10.49796
G1 X197.446 Y156.239 E10.54558
G1 X199.201 Y156.371 E10.63901
G1 X201.936 Y156.524 E10.78442
G1 X204.683 Y156.6 E10.93029
G1 X207.398 Y156.598 E11.07441
G1 X210.145 Y156.518 E11.22029
G1 X212.907 Y156.36 E11.36715
G1 X214.505 Y156.24 E11.45221
G1 X215.465 Y156.22 E11.50319
G1 X286.55 Y156.22 E15.2766
G1 X287.234 Y156.23 E15.31292
G1 X288.102 Y156.331 E15.3593
G1 X288.902 Y156.588 E15.40391
G1 X289.749 Y156.994 E15.45377
G1 X290.434 Y157.495 E15.49882
G1 X290.905 Y157.968 E15.53425
G1 X291.48 Y158.709 E15.58404
G1 X291.802 Y159.339 E15.6216
G1 X292.125 Y160.22 E15.67141
G1 X292.266 Y161.011 E15.71406
G1 X292.28 Y161.928 E15.76274
G1 X292.28 Y240.044 E19.90938
G1 X292.27 Y240.734 E19.94602
G1 X292.169 Y241.601 E19.99235
G1 X291.913 Y242.401 E20.03694
G1 X291.507 Y243.246 E20.0867
G1 X291.011 Y243.928 E20.13147
G1 X290.429 Y244.51 E20.17516
G1 X289.764 Y244.994 E20.21882
G1 X289.16 Y245.303 E20.25483
G1 X288.279 Y245.626 E20.30464
G1 X287.485 Y245.766 E20.34744
G1 X286.537 Y245.78 E20.39777
G1 X215.451 Y245.78 E24.17124
G1 X214.568 Y245.762 E24.21812
G1 X212.659 Y245.615 E24.31976
G1 X209.914 Y245.461 E24.4657
G1 X207.166 Y245.385 E24.61163
G1 X204.452 Y245.387 E24.7557
G1 X201.705 Y245.467 E24.90158
G1 X198.964 Y245.624 E25.04732
G1 X197.038 Y245.778 E25.14988
G1 X195.122 Y245.78 E25.25159
G1 X192.328 Y245.82 E25.39992
G1 X189.617 Y245.935 E25.54396
G1 X186.87 Y246.129 E25.69014
G1 X184.14 Y246.4 E25.83577
G1 X181.452 Y246.744 E25.97962
G1 X178.756 Y247.168 E26.12449
G1 X176.059 Y247.669 E26.27011
G1 X173.366 Y248.248 E26.41633
G1 X170.723 Y248.896 E26.56078
G1 X168.087 Y249.621 E26.7059
G1 X165.477 Y250.42 E26.8508
G1 X162.878 Y251.297 E26.9964
G1 X160.301 Y252.248 E27.14222
G1 X157.045 Y253.57 E27.32876
G1 X156.282 Y253.897 E27.37282
G1 X155.295 Y254.19 E27.42748
G1 X154.23 Y254.477 E27.48603
M204 S3000
M205 X10 Y10
G1 F2400 E21.48603
G1 F1200 Z0.275
G0 F6000 X182.953 Y220.221 Z0.275
M204 S1000
M205 X8 Y8
G1 F1200 Z0.2
G1 F2400 E27.48603
G1 X182.937 Y220.28 E27.48927
G1 X182.88 Y220.337 E27.49355
G1 X182.823 Y220.353 E27.49669
G1 X182.705 Y220.318 E27.50323
G1 X182.449 Y220.283 E27.51694
G1 X182.367 Y220.297 E27.52136
G1 X182.369 Y220.287 E27.5219
G1 X182.369 Y219.872 E27.54393
G1 X182.462 Y219.91 E27.54926
G1 X182.556 Y219.936 E27.55444
G1 X182.644 Y220.004 E27.56034
G1 X182.825 Y220.078 E27.57072
G1 X182.87 Y220.09 E27.57319
G1 X182.936 Y220.16 E27.5783
G1 X182.953 Y220.221 E27.58166
M204 S3000
M205 X10 Y10
G0 F6000 X182.817 Y220.936
M204 S1000
M205 X8 Y8
G1 F2400 X182.546 Y220.855 E27.59668
G1 X182.397 Y220.852 E27.60459
G1 X182.269 Y220.924 E27.61238
G1 X182.129 Y221.063 E27.62286
G1 X181.963 Y221.11 E27.63202
G1 X181.626 Y221.053 E27.65016
G1 X181.471 Y220.926 E27.6608
G1 X181.427 Y220.804 E27.66768
G1 X181.467 Y220.69 E27.67409
G1 X181.701 Y220.508 E27.68983
G1 X181.79 Y220.389 E27.69772
G1 X181.809 Y220.287 E27.70323
G1 X181.809 Y219.722 E27.73322
G1 X181.728 Y219.525 E27.74452
G1 X181.545 Y219.34 E27.75834
G1 X181.456 Y219.131 E27.7704
G1 X181.481 Y218.976 E27.77873
G1 X181.57 Y218.88 E27.78568
G1 X181.73 Y218.858 E27.79425
G1 X181.956 Y218.95 E27.8072
G1 X182.132 Y219.127 E27.82045
G1 X182.33 Y219.209 E27.83183
G1 X182.402 Y219.209 E27.83565
G1 X182.485 Y219.295 E27.842
G1 X182.612 Y219.371 E27.84985
G1 X182.814 Y219.427 E27.86098
G1 X182.846 Y219.461 E27.86346
G1 X182.975 Y219.539 E27.87146
G1 X183.17 Y219.593 E27.8822
G1 X183.435 Y219.874 E27.90271
G1 X183.535 Y220.218 E27.92172
G1 X183.437 Y220.572 E27.94122
G1 X183.172 Y220.837 E27.96111
G1 X182.817 Y220.936 E27.98068
M204 S3000
M205 X10 Y10
G1 F2400 E21.98068
G0 F6000 X183.789 Y223.917
M204 S1000
M205 X8 Y8
G1 F2400 E27.98068
G1 X183.735 Y224.079 E27.98974
G1 X183.712 Y224.068 E27.9911
G1 X183.515 Y224.038 E28.00167
G1 X183.463 Y223.999 E28.00512
G1 X183.28 Y223.926 E28.01558
G1 X183.047 Y223.864 E28.02838
G1 X182.867 Y223.733 E28.0402
G1 X182.81 Y223.714 E28.04339
G1 X182.9 Y223.637 E28.04968
G1 X183.069 Y223.459 E28.06271
G1 X183.122 Y223.444 E28.06563
G1 X183.267 Y223.486 E28.07364
G1 X183.524 Y223.519 E28.0874
G1 X183.731 Y223.486 E28.09852
G1 X183.876 Y223.444 E28.10654
G1 X183.928 Y223.459 E28.10941
G1 X183.996 Y223.53 E28.11463
G1 X184.013 Y223.59 E28.11794
G1 X183.996 Y223.652 E28.12135
G1 X183.941 Y223.707 E28.12548
G1 X183.789 Y223.917 E28.13924
M204 S3000
M205 X10 Y10
G0 F6000 X184.231 Y224.78
M204 S1000
M205 X8 Y8
G1 F2400 X184.114 Y224.926 E28.14917
G1 X183.98 Y224.972 E28.15669
G1 X183.863 Y224.93 E28.16329
G1 X183.687 Y224.701 E28.17862
G1 X183.569 Y224.611 E28.1865
G1 X183.465 Y224.591 E28.19212
G1 X183.311 Y224.591 E28.2003
G1 X183.266 Y224.544 E28.20375
G1 X183.136 Y224.467 E28.21177
G1 X182.768 Y224.369 E28.23199
G1 X182.68 Y224.281 E28.2386
G1 X182.551 Y224.208 E28.24646
G1 X182.427 Y224.205 E28.25305
G1 X182.05 Y224.281 E28.27346
G1 X181.833 Y224.217 E28.28547
G1 X181.809 Y224.193 E28.28727
G1 X181.809 Y224.06 E28.29433
G1 X181.77 Y223.917 E28.3022
G1 X181.708 Y223.844 E28.30729
G1 X181.5 Y223.672 E28.32161
G1 X181.458 Y223.55 E28.32846
G1 X181.501 Y223.428 E28.33533
G1 X181.644 Y223.303 E28.34541
G1 X181.959 Y223.246 E28.3624
G1 X182.206 Y223.325 E28.37617
G1 X182.354 Y223.331 E28.38403
G1 X182.494 Y223.251 E28.39259
G1 X182.769 Y222.962 E28.41377
G1 X183.122 Y222.862 E28.43324
G1 X183.422 Y222.948 E28.44981
G1 X183.576 Y222.948 E28.45799
G1 X183.876 Y222.862 E28.47455
G1 X184.228 Y222.962 E28.49398
G1 X184.495 Y223.244 E28.51459
G1 X184.595 Y223.587 E28.53356
G1 X184.495 Y223.944 E28.55324
G1 X184.338 Y224.102 E28.56506
G1 X184.264 Y224.232 E28.573
G1 X184.259 Y224.337 E28.57858
G1 X184.286 Y224.538 E28.58935
G1 X184.231 Y224.78 E28.60252
M204 S3000
M205 X10 Y10
G1 F2400 E22.60252
G0 F6000 X186.244 Y224.898
M204 S1000
M205 X8 Y8
G1 F2400 E28.60252
G1 X186.113 Y224.943 E28.60987
G1 X185.988 Y224.9 E28.61689
G1 X185.863 Y224.746 E28.62742
G1 X185.806 Y224.438 E28.64405
G1 X185.852 Y224.281 E28.65273
G1 X185.965 Y224.162 E28.66144
G1 X185.971 Y224.16 E28.66178
G1 X186.101 Y224.083 E28.6698
G1 X186.25 Y223.927 E28.68125
G1 X186.588 Y223.837 E28.69982
G1 X186.716 Y223.763 E28.70767
G1 X186.785 Y223.646 E28.71488
G1 X186.903 Y223.244 E28.73712
G1 X187.168 Y222.963 E28.75762
G1 X187.521 Y222.864 E28.77708
G1 X187.6 Y222.887 E28.78145
G1 X187.758 Y222.887 E28.78983
G1 X187.837 Y222.864 E28.7942
G1 X188.19 Y222.963 E28.81366
G1 X188.455 Y223.244 E28.83417
G1 X188.556 Y223.59 E28.8533
G1 X188.472 Y223.887 E28.86968
G1 X188.471 Y224.035 E28.87754
G1 X188.529 Y224.146 E28.88419
G1 X188.636 Y224.271 E28.89292
G1 X188.685 Y224.439 E28.90221
G1 X188.627 Y224.787 E28.92094
G1 X188.516 Y224.926 E28.93038
G1 X188.38 Y224.972 E28.938
G1 X188.263 Y224.93 E28.9446
G1 X188.087 Y224.701 E28.95993
G1 X187.969 Y224.611 E28.96781
G1 X187.865 Y224.591 E28.97343
G1 X187.711 Y224.591 E28.98161
G1 X187.666 Y224.544 E28.98506
G1 X187.533 Y224.467 E28.99322
G1 X187.221 Y224.388 E29.01031
G1 X187.072 Y224.391 E29.01822
G1 X186.946 Y224.469 E29.02608
G1 X186.884 Y224.582 E29.03292
G1 X186.875 Y224.591 E29.0336
G1 X186.623 Y224.591 E29.04698
G1 X186.48 Y224.63 E29.05485
G1 X186.404 Y224.697 E29.06022
G1 X186.244 Y224.898 E29.07386
M204 S3000
M205 X10 Y10
G1 F2400 E23.07386
G0 F6000 X187.909 Y224.034
M204 S1000
M205 X8 Y8
G1 F2400 E29.07386
G1 X187.863 Y223.999 E29.07693
G1 X187.67 Y223.924 E29.08792
G1 X187.358 Y223.845 E29.10501
G1 X187.303 Y223.84 E29.10794
G1 X187.322 Y223.804 E29.1101
G1 X187.403 Y223.53 E29.12526
G1 X187.468 Y223.46 E29.13034
G1 X187.548 Y223.438 E29.13474
G1 X187.699 Y223.458 E29.14283
G1 X187.816 Y223.44 E29.14911
G1 X187.89 Y223.46 E29.15318
G1 X187.955 Y223.53 E29.15825
G1 X187.973 Y223.592 E29.16168
G1 X187.933 Y223.735 E29.16956
G1 X187.901 Y223.992 E29.18331
G1 X187.909 Y224.034 E29.18558
M204 S3000
M205 X10 Y10
G1 F2400 E23.18558
G0 F6000 X190.644 Y224.898
M204 S1000
M205 X8 Y8
G1 F2400 E29.18558
G1 X190.513 Y224.943 E29.19293
G1 X190.388 Y224.9 E29.19995
G1 X190.263 Y224.746 E29.21047
G1 X190.206 Y224.438 E29.2271
G1 X190.252 Y224.281 E29.23579
G1 X190.365 Y224.162 E29.2445
G1 X190.371 Y224.16 E29.24483
G1 X190.502 Y224.082 E29.25293
G1 X190.651 Y223.925 E29.26442
G1 X190.761 Y223.895 E29.27047
G1 X190.889 Y223.819 E29.27837
G1 X190.96 Y223.689 E29.28623
G1 X190.956 Y223.615 E29.29017
G1 X191.065 Y223.244 E29.31069
G1 X191.332 Y222.962 E29.33131
G1 X191.685 Y222.862 E29.35078
G1 X192.038 Y222.962 E29.37026
G1 X192.305 Y223.244 E29.39087
G1 X192.36 Y223.433 E29.40132
G1 X192.424 Y223.545 E29.40817
G1 X192.471 Y223.595 E29.41181
G1 X192.523 Y223.775 E29.42176
G1 X192.591 Y223.892 E29.42894
G1 X192.691 Y223.995 E29.43656
G1 X192.691 Y224.069 E29.44049
G1 X192.768 Y224.262 E29.45152
G1 X192.954 Y224.457 E29.46583
G1 X193.043 Y224.668 E29.47798
G1 X193.019 Y224.834 E29.48689
G1 X192.934 Y224.919 E29.49327
G1 X192.768 Y224.943 E29.50217
G1 X192.56 Y224.855 E29.51416
G1 X192.375 Y224.672 E29.52797
G1 X192.178 Y224.591 E29.53928
G1 X192.106 Y224.591 E29.5431
G1 X192.054 Y224.54 E29.54697
G1 X191.93 Y224.47 E29.55453
G1 X191.624 Y224.388 E29.57134
G1 X191.476 Y224.388 E29.5792
G1 X191.349 Y224.465 E29.58708
G1 X191.284 Y224.582 E29.59419
G1 X191.275 Y224.591 E29.59486
G1 X191.023 Y224.591 E29.60824
G1 X190.88 Y224.63 E29.61611
G1 X190.804 Y224.697 E29.62149
G1 X190.644 Y224.898 E29.63512
M204 S3000
M205 X10 Y10
G1 F2400 E23.63512
G0 F6000 X191.976 Y223.903
M204 S1000
M205 X8 Y8
G1 F2400 E29.63512
G1 X191.769 Y223.847 E29.64651
G1 X191.512 Y223.819 E29.66023
G1 X191.493 Y223.823 E29.66126
G1 X191.525 Y223.682 E29.66894
G1 X191.523 Y223.67 E29.66958
G1 X191.565 Y223.53 E29.67734
G1 X191.632 Y223.459 E29.68252
G1 X191.685 Y223.444 E29.68545
G1 X191.738 Y223.459 E29.68837
G1 X191.805 Y223.53 E29.69355
G1 X191.823 Y223.59 E29.69688
G1 X191.933 Y223.824 E29.7106
G1 X191.965 Y223.865 E29.71336
G1 X191.976 Y223.903 E29.71546
M204 S3000
M205 X10 Y10
G1 F2400 E23.71546
G0 F6000 X190.985 Y220.836
M204 S1000
M205 X8 Y8
G1 F2400 E29.71546
G1 X190.628 Y220.935 E29.73513
G1 X190.274 Y220.831 E29.75472
G1 X190.119 Y220.831 E29.76294
G1 X189.748 Y220.936 E29.78341
G1 X189.405 Y220.835 E29.80239
G1 X189.123 Y220.553 E29.82356
G1 X189.023 Y220.215 E29.84227
G1 X189.115 Y219.901 E29.85964
G1 X189.116 Y219.834 E29.8632
G1 X189.19 Y219.802 E29.86748
G1 X189.389 Y219.592 E29.88284
G1 X189.741 Y219.492 E29.90226
G1 X189.852 Y219.524 E29.90839
G1 X190.001 Y219.526 E29.9163
G1 X190.129 Y219.452 E29.92415
G1 X190.203 Y219.318 E29.93228
G1 X190.27 Y219.028 E29.94808
G1 X190.389 Y218.874 E29.95841
G1 X190.519 Y218.828 E29.96573
G1 X190.648 Y218.873 E29.97298
G1 X190.808 Y219.094 E29.98746
G1 X190.924 Y219.186 E29.99532
G1 X191.035 Y219.209 E30.00134
G1 X191.189 Y219.209 E30.00951
G1 X191.193 Y219.223 E30.01029
G1 X191.272 Y219.349 E30.01818
G1 X191.387 Y219.412 E30.02514
G1 X191.445 Y219.428 E30.02834
G1 X191.67 Y219.666 E30.04572
G1 X191.796 Y219.743 E30.05356
G1 X191.945 Y219.745 E30.06147
G1 X192.076 Y219.667 E30.06956
G1 X192.168 Y219.57 E30.07666
G1 X192.451 Y219.519 E30.09193
G1 X192.68 Y219.583 E30.10455
G1 X192.691 Y219.595 E30.10541
G1 X192.691 Y219.736 E30.1129
G1 X192.73 Y219.879 E30.12076
G1 X192.791 Y219.951 E30.12577
G1 X193.001 Y220.127 E30.14032
G1 X193.043 Y220.247 E30.14707
G1 X192.998 Y220.382 E30.15462
G1 X192.859 Y220.496 E30.16416
G1 X192.538 Y220.553 E30.18147
G1 X192.383 Y220.508 E30.19004
G1 X192.312 Y220.437 E30.19537
G1 X192.185 Y220.365 E30.20312
G1 X192.045 Y220.226 E30.21359
G1 X191.916 Y220.153 E30.22146
G1 X191.768 Y220.157 E30.22932
G1 X191.65 Y220.227 E30.2366
G1 X191.448 Y220.429 E30.25176
G1 X191.442 Y220.431 E30.2521
G1 X191.32 Y220.502 E30.25959
G1 X190.985 Y220.836 E30.2847
M204 S3000
M205 X10 Y10
G0 F6000 X190.693 Y220.336
M204 S1000
M205 X8 Y8
G1 F2400 X190.632 Y220.353 E30.28807
G1 X190.432 Y220.294 E30.29913
G1 X190.176 Y220.26 E30.31284
G1 X189.967 Y220.292 E30.32407
G1 X189.751 Y220.353 E30.33598
G1 X189.7 Y220.338 E30.3388
G1 X189.62 Y220.258 E30.34481
G1 X189.607 Y220.213 E30.3473
G1 X189.622 Y220.161 E30.35017
G1 X189.69 Y220.089 E30.35543
G1 X189.757 Y220.07 E30.35912
G1 X189.953 Y220.095 E30.36961
G1 X190.208 Y220.048 E30.38338
G1 X190.435 Y219.926 E30.39706
G1 X190.615 Y219.741 E30.41076
G1 X190.65 Y219.664 E30.41525
G1 X190.767 Y219.725 E30.42225
G1 X190.889 Y219.745 E30.42881
G1 X190.946 Y219.806 E30.43325
G1 X191.107 Y219.886 E30.44279
G1 X191.152 Y219.933 E30.44624
G1 X191.111 Y219.974 E30.44932
G1 X191.058 Y219.998 E30.45241
G1 X190.925 Y220.105 E30.46147
G1 X190.693 Y220.336 E30.47885
M204 S3000
M205 X10 Y10
G1 F2400 E24.47885
G0 F6000 X187.287 Y220.572
M204 S1000
M205 X8 Y8
G1 F2400 E30.47885
G1 X187.022 Y220.837 E30.49874
G1 X186.668 Y220.935 E30.51824
G1 X186.327 Y220.835 E30.5371
G1 X186.045 Y220.553 E30.55827
G1 X185.945 Y220.215 E30.57699
G1 X186.032 Y219.919 E30.59336
G1 X186.034 Y219.771 E30.60122
G1 X185.975 Y219.657 E30.60803
G1 X185.865 Y219.529 E30.61699
G1 X185.815 Y219.361 E30.6263
G1 X185.873 Y219.025 E30.6444
G1 X185.99 Y218.873 E30.65458
G1 X186.119 Y218.828 E30.66183
G1 X186.248 Y218.873 E30.66908
G1 X186.408 Y219.094 E30.68357
G1 X186.524 Y219.186 E30.69143
G1 X186.635 Y219.209 E30.69744
G1 X186.789 Y219.209 E30.70562
G1 X186.793 Y219.223 E30.70639
G1 X186.872 Y219.349 E30.71429
G1 X186.987 Y219.412 E30.72125
G1 X187.043 Y219.427 E30.72432
G1 X187.065 Y219.451 E30.72605
G1 X187.191 Y219.528 E30.73389
G1 X187.333 Y219.532 E30.74143
G1 X187.384 Y219.52 E30.74421
G1 X187.514 Y219.449 E30.75208
G1 X187.589 Y219.325 E30.75977
G1 X187.617 Y219.229 E30.76508
G1 X187.636 Y219.209 E30.76654
G1 X187.881 Y219.209 E30.77955
