;FLAVOR:Marlin
;TIME:1086
;Filament used: 1.12019m
;Layer height: 0.2
;MINX:191.668
;MINY:171.668
;MINZ:0.2
;MAXX:210.333
;MAXY:230.332
;MAXZ:14
;TARGET_MACHINE.NAME:Anycubic Kobra Max
;Generated with Cura_SteamEngine 5.9.0
M140 S60
M105
M190 S60
M104 S195
M105
M109 S195
M82 ;absolute extrusion mode
G28 ;Home
G1 Z15.0 F1200 ;Move the platform down 15mm
;Prime the extruder
G92 E0
G1 F200 E3
G92 E0
G92 E0
G92 E0
G1 F2400 E-6
;LAYER_COUNT:70
;LAYER:0
M107
M204 S3000
M205 X10 Y10
G1 F1200 Z0.275
G0 F6000 X202.206 Y230.255 Z0.275
M204 S1000
M205 X8 Y8
;TYPE:SKIRT
G1 F1200 Z0.2
G1 F2400 E0
G1 X201.121 Y230.332 E0.05774
G1 X199.888 Y230.268 E0.12328
G1 X198.846 Y230.079 E0.17949
G1 X197.776 Y229.759 E0.23878
G1 X196.79 Y229.33 E0.29586
G1 X195.799 Y228.749 E0.35684
G1 X194.879 Y228.044 E0.41837
G1 X194.128 Y227.314 E0.47396
G1 X193.363 Y226.364 E0.53871
G1 X192.809 Y225.473 E0.5944
G1 X192.329 Y224.449 E0.65443
G1 X191.963 Y223.325 E0.71718
G1 X191.745 Y222.207 E0.77765
G1 X191.669 Y221.142 E0.83433
G1 X191.703 Y220.282 E0.88001
G1 X191.78 Y219.235 E0.93574
G1 X191.89 Y217.983 E1.00246
G1 X192.047 Y215.283 E1.14602
G1 X192.13 Y212.567 E1.29027
G1 X192.136 Y209.835 E1.43529
G1 X192.063 Y207.107 E1.58015
G1 X191.843 Y203.398 E1.77738
G1 X191.67 Y201.148 E1.89717
G1 X191.703 Y200.282 E1.94318
G1 X191.78 Y199.235 E1.9989
G1 X191.89 Y197.983 E2.06562
G1 X192.047 Y195.283 E2.20919
G1 X192.13 Y192.567 E2.35343
G1 X192.136 Y189.835 E2.49845
G1 X192.063 Y187.107 E2.64331
G1 X191.843 Y183.398 E2.84055
G1 X191.668 Y181.058 E2.96511
G1 X191.732 Y179.88 E3.02773
G1 X191.919 Y178.848 E3.08341
G1 X192.239 Y177.781 E3.14254
G1 X192.67 Y176.79 E3.1999
G1 X193.282 Y175.753 E3.26382
G1 X193.951 Y174.884 E3.32204
G1 X194.687 Y174.127 E3.37808
G1 X195.579 Y173.405 E3.439
G1 X196.586 Y172.778 E3.50197
G1 X197.55 Y172.329 E3.55842
G1 X198.675 Y171.963 E3.62122
G1 X199.794 Y171.745 E3.68174
G1 X200.879 Y171.668 E3.73948
G1 X202.112 Y171.732 E3.80502
G1 X203.154 Y171.921 E3.86123
G1 X204.167 Y172.22 E3.9173
G1 X205.265 Y172.698 E3.98087
G1 X206.247 Y173.282 E4.04152
G1 X207.116 Y173.951 E4.09973
G1 X207.867 Y174.681 E4.15533
G1 X208.636 Y175.635 E4.22037
G1 X209.19 Y176.526 E4.27607
G1 X209.667 Y177.542 E4.33565
G1 X210.038 Y178.68 E4.39919
G1 X210.255 Y179.789 E4.45917
G1 X210.331 Y180.858 E4.51606
G1 X210.297 Y181.719 E4.5618
G1 X210.223 Y182.732 E4.61572
G1 X210.109 Y184.044 E4.68563
G1 X209.953 Y186.717 E4.82776
G1 X209.87 Y189.433 E4.972
G1 X209.864 Y192.165 E5.11702
G1 X209.937 Y194.891 E5.26178
G1 X210.155 Y198.569 E5.45736
G1 X210.33 Y200.853 E5.57896
G1 X210.297 Y201.719 E5.62496
G1 X210.223 Y202.732 E5.67888
G1 X210.109 Y204.044 E5.74879
G1 X209.953 Y206.717 E5.89092
G1 X209.87 Y209.433 E6.03516
G1 X209.864 Y212.165 E6.18018
G1 X209.937 Y214.891 E6.32494
G1 X210.154 Y218.564 E6.52026
G1 X210.333 Y220.934 E6.64642
G1 X210.276 Y222.037 E6.70505
G1 X210.058 Y223.265 E6.77126
G1 X209.757 Y224.226 E6.82471
G1 X209.333 Y225.205 E6.88135
G1 X208.718 Y226.247 E6.94557
G1 X208.049 Y227.116 E7.00379
G1 X207.313 Y227.873 E7.05984
G1 X206.421 Y228.595 E7.12075
G1 X205.414 Y229.222 E7.18372
G1 X204.45 Y229.671 E7.24017
G1 X203.325 Y230.037 E7.30297
G1 X202.206 Y230.255 E7.36349
M204 S3000
M205 X10 Y10
G0 F6000 X202.166 Y229.696
M204 S1000
M205 X8 Y8
G1 F2400 X201.081 Y229.773 E7.42123
G1 X199.986 Y229.717 E7.47943
G1 X199.005 Y229.542 E7.53233
G1 X197.999 Y229.245 E7.58801
G1 X197.013 Y228.816 E7.64509
G1 X196.084 Y228.267 E7.70237
G1 X195.269 Y227.642 E7.75689
G1 X194.518 Y226.912 E7.81248
G1 X193.839 Y226.068 E7.86999
G1 X193.285 Y225.177 E7.92568
G1 X192.837 Y224.213 E7.98211
G1 X192.512 Y223.216 E8.03777
G1 X192.304 Y222.167 E8.09454
G1 X192.228 Y221.102 E8.15122
G1 X192.262 Y220.323 E8.19261
G1 X192.338 Y219.284 E8.24791
G1 X192.448 Y218.032 E8.31463
G1 X192.607 Y215.3 E8.4599
G1 X192.69 Y212.584 E8.60414
G1 X192.696 Y209.836 E8.75001
G1 X192.623 Y207.092 E8.89572
G1 X192.402 Y203.365 E9.09391
G1 X192.228 Y201.105 E9.21423
G1 X192.262 Y200.323 E9.25578
G1 X192.338 Y199.284 E9.31108
G1 X192.448 Y198.032 E9.3778
G1 X192.607 Y195.3 E9.52307
G1 X192.69 Y192.584 E9.66731
G1 X192.696 Y189.836 E9.81318
G1 X192.623 Y187.092 E9.95889
G1 X192.402 Y183.365 E10.15708
G1 X192.227 Y181.086 E10.27842
G1 X192.283 Y179.978 E10.33731
G1 X192.456 Y179.007 E10.38966
G1 X192.753 Y178.004 E10.44519
G1 X193.184 Y177.013 E10.50256
G1 X193.727 Y176.093 E10.55926
G1 X194.353 Y175.274 E10.61398
G1 X195.089 Y174.517 E10.67003
G1 X195.93 Y173.841 E10.72731
G1 X196.822 Y173.286 E10.78307
G1 X197.786 Y172.837 E10.83953
G1 X198.784 Y172.512 E10.89524
G1 X199.834 Y172.304 E10.95206
G1 X200.919 Y172.227 E11.0098
G1 X202.014 Y172.283 E11.068
G1 X202.995 Y172.458 E11.1209
G1 X204.008 Y172.757 E11.17697
G1 X204.98 Y173.18 E11.23324
G1 X205.907 Y173.727 E11.29037
G1 X206.726 Y174.353 E11.34509
G1 X207.477 Y175.083 E11.40069
G1 X208.16 Y175.931 E11.45849
G1 X208.714 Y176.822 E11.51418
G1 X209.159 Y177.778 E11.57016
G1 X209.489 Y178.789 E11.62661
G1 X209.696 Y179.829 E11.6829
G1 X209.772 Y180.898 E11.73979
G1 X209.738 Y181.678 E11.78124
G1 X209.665 Y182.684 E11.83478
G1 X209.551 Y183.996 E11.90469
G1 X209.393 Y186.7 E12.04847
G1 X209.31 Y189.416 E12.19271
G1 X209.304 Y192.164 E12.33858
G1 X209.377 Y194.908 E12.48429
G1 X209.597 Y198.612 E12.68126
G1 X209.772 Y200.896 E12.80286
G1 X209.738 Y201.678 E12.84441
G1 X209.665 Y202.684 E12.89795
G1 X209.551 Y203.996 E12.96786
G1 X209.393 Y206.7 E13.11164
G1 X209.31 Y209.416 E13.25588
G1 X209.304 Y212.164 E13.40175
G1 X209.377 Y214.908 E13.54746
G1 X209.596 Y218.607 E13.74416
G1 X209.774 Y220.905 E13.86651
G1 X209.717 Y222.008 E13.92514
G1 X209.523 Y223.099 E13.98396
G1 X209.243 Y224.003 E14.0342
G1 X208.819 Y224.982 E14.09083
G1 X208.273 Y225.907 E14.14785
G1 X207.647 Y226.726 E14.20257
G1 X206.911 Y227.483 E14.25862
G1 X206.07 Y228.159 E14.3159
G1 X205.178 Y228.714 E14.37166
G1 X204.214 Y229.163 E14.42811
G1 X203.216 Y229.488 E14.48383
G1 X202.166 Y229.696 E14.54065
M204 S3000
M205 X10 Y10
G1 F2400 E8.54065
;MESH:auto tuner servo bit (flat).STL(1)
G0 F6000 X206.073 Y224.502
G0 X206.459 Y223.865
G0 X206.765 Y223.186
G0 X206.988 Y222.469
G0 X207.121 Y221.742
G0 X207.166 Y221
G0 X207.166 Y201
G0 X207.121 Y200.257
G0 X206.986 Y199.525
G0 X206.788 Y198.885
G0 X201.065 Y187.161
G0 X201 Y186.069
G0 X201.973 Y184.979
M204 S1000
M205 X8 Y8
;TYPE:WALL-INNER
G1 F2400 E14.54065
G1 F2700 X202.455 Y184.828 E14.56746
G1 X202.906 Y184.626 E14.59369
G1 X203.318 Y184.374 E14.61933
G1 X203.711 Y184.068 E14.64577
G1 X204.068 Y183.711 E14.67257
G1 X204.374 Y183.318 E14.69901
G1 X204.626 Y182.905 E14.72469
G1 X204.832 Y182.447 E14.75135
G1 X204.981 Y181.968 E14.77798
G1 X205.067 Y181.5 E14.80324
G1 X205.097 Y180.994 E14.83015
G1 X205.067 Y180.504 E14.8562
G1 X204.978 Y180.025 E14.88207
G1 X204.828 Y179.54 E14.90902
G1 X204.626 Y179.09 E14.9352
G1 X204.374 Y178.678 E14.96084
G1 X204.068 Y178.285 E14.98728
G1 X203.711 Y177.928 E15.01408
G1 X203.321 Y177.624 E15.04033
G1 X202.906 Y177.373 E15.06607
G1 X202.454 Y177.168 E15.09242
G1 X201.97 Y177.019 E15.1193
G1 X201.499 Y176.933 E15.14471
G1 X200.998 Y176.905 E15.17135
G1 X200.499 Y176.933 E15.19788
G1 X200.023 Y177.019 E15.22356
G1 X199.547 Y177.167 E15.25002
G1 X199.089 Y177.374 E15.2767
G1 X198.675 Y177.624 E15.30237
G1 X198.285 Y177.928 E15.32862
G1 X197.928 Y178.285 E15.35542
G1 X197.624 Y178.675 E15.38167
G1 X197.373 Y179.09 E15.40741
G1 X197.165 Y179.549 E15.43416
G1 X197.019 Y180.024 E15.46054
G1 X196.933 Y180.5 E15.48622
G1 X196.903 Y181.003 E15.51297
G1 X196.933 Y181.501 E15.53945
G1 X197.019 Y181.979 E15.56523
G1 X197.164 Y182.445 E15.59114
G1 X197.373 Y182.906 E15.61801
G1 X197.624 Y183.321 E15.64375
G1 X197.928 Y183.711 E15.67
G1 X198.285 Y184.068 E15.6968
G1 X198.678 Y184.374 E15.72324
G1 X199.089 Y184.625 E15.74881
G1 X199.546 Y184.829 E15.77537
G1 X200.03 Y184.982 E15.80232
G1 X200.5 Y185.067 E15.82767
G1 X201 Y185.097 E15.85426
G1 X201.497 Y185.067 E15.88069
G1 X201.973 Y184.979 E15.90639
M204 S3000
M205 X10 Y10
G0 F6000 X202.109 Y185.523
M204 S1000
M205 X8 Y8
G1 F2700 X202.654 Y185.352 E15.93671
G1 X203.167 Y185.123 E15.96653
G1 X203.637 Y184.836 E15.99576
G1 X204.082 Y184.489 E16.02572
G1 X204.489 Y184.082 E16.05627
G1 X204.836 Y183.637 E16.08623
G1 X205.123 Y183.167 E16.11546
G1 X205.357 Y182.645 E16.14582
G1 X205.526 Y182.102 E16.17601
G1 X205.624 Y181.567 E16.20488
G1 X205.658 Y180.993 E16.23541
G1 X205.624 Y180.435 E16.26508
G1 X205.523 Y179.891 E16.29445
G1 X205.352 Y179.342 E16.32498
G1 X205.123 Y178.829 E16.3548
G1 X204.836 Y178.359 E16.38403
G1 X204.489 Y177.914 E16.41399
G1 X204.082 Y177.507 E16.44454
G1 X203.639 Y177.162 E16.47435
G1 X203.167 Y176.877 E16.50362
G1 X202.653 Y176.643 E16.53359
G1 X202.104 Y176.474 E16.56409
G1 X201.567 Y176.376 E16.59306
G1 X200.999 Y176.343 E16.62327
G1 X200.432 Y176.376 E16.65341
G1 X199.889 Y176.474 E16.6827
G1 X199.347 Y176.643 E16.71284
G1 X198.828 Y176.877 E16.74306
G1 X198.357 Y177.162 E16.77229
G1 X197.914 Y177.507 E16.80209
G1 X197.507 Y177.914 E16.83264
G1 X197.162 Y178.357 E16.86245
G1 X196.877 Y178.829 E16.89172
G1 X196.64 Y179.351 E16.92215
G1 X196.474 Y179.891 E16.95214
G1 X196.376 Y180.433 E16.98138
G1 X196.342 Y181.003 E17.01169
G1 X196.376 Y181.567 E17.04168
G1 X196.474 Y182.112 E17.07108
G1 X196.639 Y182.644 E17.10064
G1 X196.877 Y183.167 E17.13115
G1 X197.162 Y183.639 E17.16041
G1 X197.507 Y184.082 E17.19022
G1 X197.914 Y184.489 E17.22077
G1 X198.359 Y184.836 E17.25073
G1 X198.828 Y185.122 E17.27989
G1 X199.347 Y185.353 E17.31004
G1 X199.895 Y185.526 E17.34055
G1 X200.433 Y185.624 E17.36958
G1 X201 Y185.658 E17.39973
G1 X201.565 Y185.624 E17.42978
G1 X202.109 Y185.523 E17.45915
M204 S3000
M205 X10 Y10
G0 F6000 X202.244 Y186.067
M204 S1000
M205 X8 Y8
;TYPE:WALL-OUTER
G1 F2700 X202.852 Y185.877 E17.49296
G1 X203.429 Y185.619 E17.52651
G1 X203.956 Y185.297 E17.5593
G1 X204.454 Y184.909 E17.59281
G1 X204.909 Y184.454 E17.62696
G1 X205.297 Y183.956 E17.66048
G1 X205.619 Y183.429 E17.69326
G1 X205.881 Y182.844 E17.72729
G1 X206.071 Y182.236 E17.7611
G1 X206.181 Y181.634 E17.79358
G1 X206.219 Y180.993 E17.82767
G1 X206.181 Y180.367 E17.86096
G1 X206.067 Y179.756 E17.89396
G1 X205.877 Y179.144 E17.92797
G1 X205.619 Y178.567 E17.96152
G1 X205.297 Y178.04 E17.99431
G1 X204.909 Y177.542 E18.02782
G1 X204.454 Y177.087 E18.06198
G1 X203.957 Y176.7 E18.09541
G1 X203.429 Y176.381 E18.12816
G1 X202.852 Y176.119 E18.1618
G1 X202.237 Y175.929 E18.19597
G1 X201.634 Y175.819 E18.2285
G1 X200.999 Y175.781 E18.26227
G1 X200.366 Y175.819 E18.29593
G1 X199.755 Y175.929 E18.32889
G1 X199.148 Y176.119 E18.36265
G1 X198.567 Y176.381 E18.39648
G1 X198.039 Y176.7 E18.42923
G1 X197.542 Y177.087 E18.46267
G1 X197.087 Y177.542 E18.49683
G1 X196.7 Y178.039 E18.53026
G1 X196.381 Y178.567 E18.56301
G1 X196.115 Y179.152 E18.59712
G1 X195.929 Y179.759 E18.63082
G1 X195.819 Y180.366 E18.66357
G1 X195.781 Y181.003 E18.69744
G1 X195.819 Y181.634 E18.731
G1 X195.929 Y182.245 E18.76395
G1 X196.115 Y182.844 E18.79725
G1 X196.381 Y183.429 E18.83136
G1 X196.7 Y183.957 E18.86411
G1 X197.087 Y184.454 E18.89754
G1 X197.542 Y184.909 E18.9317
G1 X198.04 Y185.297 E18.96521
G1 X198.567 Y185.619 E18.998
G1 X199.148 Y185.877 E19.03174
G1 X199.76 Y186.071 E19.06582
G1 X200.366 Y186.181 E19.09852
G1 X201 Y186.219 E19.13223
G1 X201.633 Y186.181 E19.16589
G1 X202.244 Y186.067 E19.19889
M204 S3000
M205 X10 Y10
G0 F6000 X202.434 Y186.008
G0 X202.249 Y185.408
G0 X201.433 Y184.529
M204 S1000
M205 X8 Y8
;TYPE:SKIN
G1 F2700 X200.999 Y184.555 E19.22197
G1 X200.172 Y184.457 E19.26617
G1 X199.344 Y184.146 E19.31312
G1 X198.637 Y183.656 E19.35879
G1 X198.331 Y183.35 E19.38176
G1 X197.849 Y182.653 E19.42674
G1 X197.541 Y181.844 E19.47269
G1 X197.467 Y181.439 E19.49455
G1 X197.471 Y180.557 E19.54137
G1 X197.541 Y180.154 E19.56308
G1 X197.667 Y179.748 E19.58565
G1 X197.849 Y179.343 E19.60922
G1 X198.327 Y178.648 E19.65399
G1 X198.94 Y178.091 E19.69796
G1 X199.338 Y177.853 E19.72258
G1 X199.744 Y177.671 E19.74619
G1 X200.55 Y177.468 E19.79032
G1 X201.442 Y177.468 E19.83767
G1 X202.256 Y177.671 E19.8822
G1 X202.653 Y177.849 E19.90529
G1 X203.349 Y178.33 E19.9502
G1 X203.652 Y178.636 E19.97306
G1 X204.154 Y179.355 E20.01961
G1 X204.317 Y179.723 E20.04098
G1 X204.529 Y180.564 E20.08702
G1 X204.555 Y180.989 E20.10962
G1 X204.529 Y181.438 E20.13349
G1 X204.455 Y181.832 E20.15478
G1 X204.154 Y182.638 E20.20045
G1 X203.656 Y183.355 E20.24679
G1 X203.355 Y183.656 E20.26938
G1 X202.641 Y184.151 E20.3155
G1 X202.265 Y184.321 E20.33741
G1 X201.433 Y184.529 E20.38293
M204 S3000
M205 X10 Y10
G0 F6000 X199.891 Y184.051
M204 S1000
M205 X8 Y8
G1 F2700 X197.934 Y182.095 E20.52981
M204 S3000
M205 X10 Y10
G0 F6000 X197.735 Y181.104
M204 S1000
M205 X8 Y8
G1 F2700 X200.893 Y184.262 E20.76688
M204 S3000
M205 X10 Y10
G0 F6000 X201.618 Y184.195
M204 S1000
M205 X8 Y8
G1 F2700 X197.796 Y180.373 E21.0538
M204 S3000
M205 X10 Y10
G0 F6000 X197.984 Y179.769
M204 S1000
M205 X8 Y8
G1 F2700 X202.24 Y184.025 E21.3733
M204 S3000
M205 X10 Y10
G0 F6000 X202.744 Y183.737
M204 S1000
M205 X8 Y8
G1 F2700 X198.252 Y179.245 E21.71052
M204 S3000
M205 X10 Y10
G0 F6000 X198.588 Y178.789
M204 S1000
M205 X8 Y8
G1 F2700 X203.207 Y183.408 E22.05728
M204 S3000
M205 X10 Y10
G0 F6000 X203.574 Y182.983
M204 S1000
M205 X8 Y8
G1 F2700 X199.003 Y178.412 E22.40043
M204 S3000
M205 X10 Y10
G0 F6000 X199.497 Y178.115
M204 S1000
M205 X8 Y8
G1 F2700 X203.899 Y182.516 E22.73085
M204 S3000
M205 X10 Y10
G0 F6000 X204.118 Y181.943
M204 S1000
M205 X8 Y8
G1 F2700 X200.055 Y177.88 E23.03586
M204 S3000
M205 X10 Y10
G0 F6000 X200.714 Y177.748
M204 S1000
M205 X8 Y8
G1 F2700 X204.251 Y181.284 E23.30135
M204 S3000
M205 X10 Y10
G0 F6000 X204.215 Y180.456
M204 S1000
M205 X8 Y8
G1 F2700 X201.537 Y177.778 E23.50239
G1 X201.467 Y177.708
M204 S3000
M205 X10 Y10
G0 F6000 X202.93 Y178.379
M204 S1000
M205 X8 Y8
G1 F2700 X203.597 Y179.047 E23.5525
M204 S3000
M205 X10 Y10
G1 F2400 E17.5525
;MESH:auto tuner servo bit (flat).STL
G0 F6000 X202.207 Y185.924
G0 X202.406 Y186.999
G0 X201.665 Y194.874
G0 X201.601 Y195.966
G0 X201.973 Y204.979
M204 S1000
M205 X8 Y8
;TYPE:WALL-INNER
G1 F2400 E23.5525
G1 F2700 X202.455 Y204.828 E23.57931
G1 X202.906 Y204.626 E23.60555
G1 X203.318 Y204.374 E23.63118
G1 X203.711 Y204.068 E23.65762
G1 X204.068 Y203.711 E23.68442
G1 X204.374 Y203.318 E23.71086
G1 X204.626 Y202.905 E23.73654
G1 X204.832 Y202.447 E23.7632
G1 X204.981 Y201.968 E23.78983
G1 X205.067 Y201.5 E23.81509
G1 X205.097 Y200.994 E23.842
G1 X205.067 Y200.504 E23.86806
G1 X204.978 Y200.025 E23.89392
G1 X204.828 Y199.54 E23.92087
G1 X204.626 Y199.09 E23.94705
G1 X204.374 Y198.678 E23.97269
G1 X204.068 Y198.285 E23.99913
G1 X203.711 Y197.928 E24.02593
G1 X203.321 Y197.624 E24.05218
G1 X202.906 Y197.373 E24.07792
G1 X202.454 Y197.168 E24.10427
G1 X201.97 Y197.019 E24.13115
G1 X201.499 Y196.933 E24.15657
G1 X200.998 Y196.905 E24.1832
G1 X200.499 Y196.933 E24.20973
G1 X200.023 Y197.019 E24.23541
G1 X199.547 Y197.167 E24.26187
G1 X199.089 Y197.374 E24.28855
G1 X198.675 Y197.624 E24.31422
G1 X198.285 Y197.928 E24.34047
G1 X197.928 Y198.285 E24.36727
G1 X197.624 Y198.675 E24.39352
G1 X197.373 Y199.09 E24.41927
G1 X197.165 Y199.549 E24.44602
G1 X197.019 Y200.024 E24.47239
G1 X196.933 Y200.5 E24.49807
G1 X196.903 Y201.003 E24.52482
G1 X196.933 Y201.501 E24.5513
G1 X197.019 Y201.979 E24.57708
G1 X197.164 Y202.445 E24.60299
G1 X197.373 Y202.906 E24.62986
G1 X197.624 Y203.321 E24.65561
G1 X197.928 Y203.711 E24.68185
G1 X198.285 Y204.068 E24.70865
G1 X198.678 Y204.374 E24.73509
G1 X199.089 Y204.625 E24.76066
G1 X199.546 Y204.829 E24.78722
G1 X200.03 Y204.982 E24.81417
G1 X200.5 Y205.067 E24.83952
G1 X201 Y205.097 E24.86611
G1 X201.497 Y205.067 E24.89254
G1 X201.973 Y204.979 E24.91824
M204 S3000
M205 X10 Y10
G0 F6000 X202.109 Y205.523
M204 S1000
M205 X8 Y8
G1 F2700 X202.654 Y205.352 E24.94856
G1 X203.167 Y205.123 E24.97838
G1 X203.637 Y204.836 E25.00761
G1 X204.082 Y204.489 E25.03757
G1 X204.489 Y204.082 E25.06812
G1 X204.836 Y203.637 E25.09808
G1 X205.123 Y203.167 E25.12731
