;FLAVOR:Marlin
;TIME:13647
;Filament used: 21.2347m
;Layer height: 0.2
;MINX:104.72
;MINY:155.72
;MINZ:0.2
;MAXX:292.28
;MAXY:246.28
;MAXZ:32.4
;TARGET_MACHINE.NAME:Anycubic Kobra Max
;Generated with Cura_SteamEngine 5.9.0
M140 S60
M105
M190 S60
M104 S195
M105
M109 S195
M82 ;absolute extrusion mode
G28 ;Home
G1 Z15.0 F1200 ;Move the platform down 15mm
;Prime the extruder
G92 E0
G1 F200 E3
G92 E0
G92 E0
G92 E0
G1 F2400 E-6
;LAYER_COUNT:162
;LAYER:0
M107
M204 S3000
M205 X10 Y10
G1 F1200 Z0.275
G0 F6000 X288.141 Y246.128 Z0.275
M204 S1000
M205 X8 Y8
;TYPE:SKIRT
G1 F1200 Z0.2
G1 F2400 E0
G1 X287.52 Y246.228 E0.03339
G1 X287.005 Y246.278 E0.06086
G1 X215.451 Y246.28 E3.85917
G1 X214.518 Y246.267 E3.9087
G1 X213.453 Y246.099 E3.96593
G1 X210.733 Y245.712 E4.11177
G1 X208.004 Y245.401 E4.25758
G1 X205.295 Y245.169 E4.4019
G1 X202.55 Y245.013 E4.54785
G1 X199.805 Y244.934 E4.69363
G1 X197.092 Y244.934 E4.83764
G1 X194.342 Y245.011 E4.98368
G1 X191.596 Y245.165 E5.12967
G1 X188.899 Y245.393 E5.27335
G1 X186.164 Y245.704 E5.41947
G1 X182.178 Y246.278 E5.63324
G1 X110.455 Y246.28 E9.44052
G1 X109.786 Y246.271 E9.47604
G1 X108.939 Y246.172 E9.52131
G1 X108.151 Y245.932 E9.56503
G1 X107.387 Y245.556 E9.61023
G1 X106.947 Y245.295 E9.63739
G1 X106.527 Y244.943 E9.66648
G1 X106.09 Y244.51 E9.69914
G1 X105.756 Y244.122 E9.72631
G1 X105.484 Y243.684 E9.75368
G1 X105.195 Y243.124 E9.78713
G1 X104.997 Y242.652 E9.8143
G1 X104.871 Y242.139 E9.84234
G1 X104.771 Y241.515 E9.87589
G1 X104.721 Y240.978 E9.90452
G1 X104.72 Y161.454 E14.12591
G1 X104.729 Y160.786 E14.16137
G1 X104.827 Y159.94 E14.20658
G1 X105.068 Y159.148 E14.25052
G1 X105.446 Y158.383 E14.29582
G1 X105.708 Y157.943 E14.323
G1 X106.057 Y157.527 E14.35183
G1 X106.49 Y157.09 E14.38448
G1 X106.878 Y156.756 E14.41166
G1 X107.316 Y156.484 E14.43903
G1 X107.876 Y156.195 E14.47248
G1 X108.348 Y155.997 E14.49965
G1 X108.859 Y155.872 E14.52758
G1 X109.48 Y155.772 E14.56097
G1 X109.995 Y155.722 E14.58843
G1 X181.549 Y155.72 E18.38675
G1 X182.483 Y155.733 E18.43633
G1 X183.547 Y155.901 E18.49351
G1 X186.267 Y156.288 E18.63935
G1 X188.996 Y156.599 E18.78515
G1 X191.705 Y156.831 E18.92948
G1 X194.45 Y156.987 E19.07543
G1 X197.195 Y157.066 E19.2212
G1 X199.908 Y157.066 E19.36522
G1 X202.658 Y156.989 E19.51125
G1 X205.404 Y156.835 E19.65725
G1 X208.101 Y156.607 E19.80092
G1 X210.808 Y156.299 E19.94555
G1 X214.819 Y155.722 E20.16066
G1 X286.546 Y155.72 E23.96815
G1 X287.214 Y155.729 E24.00362
G1 X288.061 Y155.828 E24.04888
G1 X288.849 Y156.068 E24.09261
G1 X289.613 Y156.444 E24.13781
G1 X290.053 Y156.705 E24.16497
G1 X290.473 Y157.057 E24.19406
G1 X290.91 Y157.49 E24.22671
G1 X291.244 Y157.878 E24.25389
G1 X291.516 Y158.316 E24.28126
G1 X291.805 Y158.876 E24.31471
G1 X292.003 Y159.348 E24.34188
G1 X292.127 Y159.852 E24.36943
G1 X292.227 Y160.465 E24.4024
G1 X292.278 Y160.99 E24.4304
G1 X292.28 Y240.546 E28.65349
G1 X292.271 Y241.214 E28.68895
G1 X292.172 Y242.061 E28.73422
G1 X291.932 Y242.849 E28.77795
G1 X291.556 Y243.613 E28.82315
G1 X291.295 Y244.053 E28.8503
G1 X290.943 Y244.473 E28.87939
G1 X290.51 Y244.91 E28.91205
G1 X290.122 Y245.244 E28.93922
G1 X289.684 Y245.516 E28.96659
G1 X289.124 Y245.805 E29.00005
G1 X288.652 Y246.003 E29.02722
G1 X288.141 Y246.128 E29.05514
M204 S3000
M205 X10 Y10
G1 F2400 E23.05514
;MESH:auto tuner encasing lid.STL
G0 F6000 X214.713 Y243.664
G0 X184.665 Y241.157
G0 X183.571 Y241.157
G0 X181.89 Y241.6
M204 S1000
M205 X8 Y8
;TYPE:WALL-INNER
G1 F2400 E29.05514
G1 F2700 X182.178 Y241.552 E29.07064
G1 X182.341 Y241.47 E29.08033
G1 X182.472 Y241.339 E29.09016
G1 X182.6 Y241.04 E29.10743
G1 X182.6 Y161.106 E33.35058
G1 X182.553 Y160.818 E33.36607
G1 X182.472 Y160.658 E33.37559
G1 X182.339 Y160.526 E33.38553
G1 X182.046 Y160.4 E33.40246
G1 X110.101 Y160.4 E37.22153
G1 X109.818 Y160.445 E37.23674
G1 X109.658 Y160.526 E37.24626
G1 X109.525 Y160.659 E37.25625
G1 X109.4 Y160.952 E37.27316
G1 X109.4 Y240.894 E41.51673
G1 X109.445 Y241.175 E41.53184
G1 X109.53 Y241.342 E41.54179
G1 X109.66 Y241.473 E41.55158
G1 X109.958 Y241.6 E41.56878
G1 X181.89 Y241.6 E45.38716
M204 S3000
M205 X10 Y10
G0 F6000 X182.353 Y242.091
M204 S1000
M205 X8 Y8
G1 F2700 X182.673 Y241.93 E45.40617
G1 X182.931 Y241.672 E45.42554
G1 X183.106 Y241.327 E45.44608
G1 X183.16 Y241.107 E45.4581
G1 X183.16 Y161.061 E49.7072
G1 X183.092 Y160.643 E49.72968
G1 X182.931 Y160.325 E49.7486
G1 X182.672 Y160.068 E49.76797
G1 X182.327 Y159.891 E49.78855
G1 X182.111 Y159.84 E49.80033
G1 X110.058 Y159.84 E53.62513
G1 X109.643 Y159.905 E53.64743
G1 X109.325 Y160.068 E53.6664
G1 X109.067 Y160.325 E53.68573
G1 X108.891 Y160.668 E53.70619
G1 X108.84 Y160.888 E53.71818
G1 X108.84 Y240.938 E57.96749
G1 X108.906 Y241.35 E57.98964
G1 X109.07 Y241.674 E58.00892
G1 X109.326 Y241.932 E58.02821
G1 X109.669 Y242.106 E58.04863
G1 X109.892 Y242.16 E58.06081
G1 X181.935 Y242.16 E61.88508
G1 X182.353 Y242.091 E61.90757
M204 S3000
M205 X10 Y10
G0 F6000 X182.528 Y242.63
M204 S1000
M205 X8 Y8
;TYPE:WALL-OUTER
G1 F2700 X183.005 Y242.39 E61.93591
G1 X183.39 Y242.005 E61.96481
G1 X183.635 Y241.522 E61.99356
G1 X183.72 Y241.174 E62.01258
G1 X183.72 Y161.015 E66.26767
G1 X183.63 Y160.468 E66.2971
G1 X183.39 Y159.991 E66.32545
G1 X183.005 Y159.61 E66.3542
G1 X182.522 Y159.361 E66.38304
G1 X182.175 Y159.28 E66.40196
G1 X110.014 Y159.28 E70.23249
G1 X109.468 Y159.366 E70.26183
G1 X108.991 Y159.61 E70.29028
G1 X108.609 Y159.991 E70.31892
G1 X108.361 Y160.474 E70.34774
G1 X108.28 Y160.824 E70.36681
G1 X108.28 Y240.982 E74.62185
G1 X108.366 Y241.524 E74.65098
G1 X108.61 Y242.006 E74.67966
G1 X108.992 Y242.39 E74.70841
G1 X109.474 Y242.635 E74.73711
G1 X109.826 Y242.72 E74.75633
G1 X181.981 Y242.72 E78.58655
G1 X182.528 Y242.63 E78.61598
M204 S3000
M205 X10 Y10
G0 F6000 X182.706 Y242.541
G0 X182.422 Y241.981
G0 X182.06 Y240.945
M204 S1000
M205 X8 Y8
;TYPE:SKIN
G1 F2700 X181.968 Y241.06 E78.62379
G1 X110.049 Y241.06 E82.44148
G1 X109.94 Y240.967 E82.44909
G1 X109.94 Y161.041 E86.69181
G1 X110.026 Y160.94 E86.69886
G1 X181.955 Y160.94 E90.51708
G1 X182.06 Y161.03 E90.52442
G1 X182.06 Y240.945 E94.76656
M204 S3000
M205 X10 Y10
G0 F6000 X110.898 Y240.78
M204 S1000
M205 X8 Y8
G1 F2700 X110.22 Y240.101 E94.81749
M204 S3000
M205 X10 Y10
G0 F6000 X110.22 Y239.309
M204 S1000
M205 X8 Y8
G1 F2700 X111.69 Y240.78 E94.92789
M204 S3000
M205 X10 Y10
G0 F6000 X112.482 Y240.78
M204 S1000
M205 X8 Y8
G1 F2700 X110.22 Y238.517 E95.09773
M204 S3000
M205 X10 Y10
G0 F6000 X110.22 Y237.725
M204 S1000
M205 X8 Y8
G1 F2700 X113.274 Y240.78 E95.32704
M204 S3000
M205 X10 Y10
G0 F6000 X114.066 Y240.78
M204 S1000
M205 X8 Y8
G1 F2700 X110.22 Y236.933 E95.6158
M204 S3000
M205 X10 Y10
G0 F6000 X110.22 Y236.141
M204 S1000
M205 X8 Y8
G1 F2700 X114.858 Y240.78 E95.96402
M204 S3000
M205 X10 Y10
G0 F6000 X115.65 Y240.78
M204 S1000
M205 X8 Y8
G1 F2700 X110.22 Y235.349 E96.37169
M204 S3000
M205 X10 Y10
G0 F6000 X110.22 Y234.557
M204 S1000
M205 X8 Y8
G1 F2700 X116.442 Y240.78 E96.83882
M204 S3000
M205 X10 Y10
G0 F6000 X117.234 Y240.78
M204 S1000
M205 X8 Y8
G1 F2700 X110.22 Y233.765 E97.3654
M204 S3000
M205 X10 Y10
G0 F6000 X110.22 Y232.973
M204 S1000
M205 X8 Y8
G1 F2700 X118.026 Y240.78 E97.95144
M204 S3000
M205 X10 Y10
G0 F6000 X118.818 Y240.78
M204 S1000
M205 X8 Y8
G1 F2700 X110.22 Y232.181 E98.59694
M204 S3000
M205 X10 Y10
G0 F6000 X110.22 Y231.389
M204 S1000
M205 X8 Y8
G1 F2700 X119.61 Y240.78 E99.3019
M204 S3000
M205 X10 Y10
G0 F6000 X120.402 Y240.78
M204 S1000
M205 X8 Y8
G1 F2700 X110.22 Y230.597 E100.06631
M204 S3000
M205 X10 Y10
G0 F6000 X110.22 Y229.805
M204 S1000
M205 X8 Y8
G1 F2700 X121.194 Y240.78 E100.89017
M204 S3000
M205 X10 Y10
G0 F6000 X121.986 Y240.78
M204 S1000
M205 X8 Y8
G1 F2700 X110.22 Y229.014 E101.77346
M204 S3000
M205 X10 Y10
G0 F6000 X110.22 Y228.222
M204 S1000
M205 X8 Y8
G1 F2700 X122.778 Y240.78 E102.7162
M204 S3000
M205 X10 Y10
G0 F6000 X123.57 Y240.78
M204 S1000
M205 X8 Y8
G1 F2700 X110.22 Y227.43 E103.71839
M204 S3000
M205 X10 Y10
G0 F6000 X110.22 Y226.638
M204 S1000
M205 X8 Y8
G1 F2700 X124.362 Y240.78 E104.78005
M204 S3000
M205 X10 Y10
G0 F6000 X125.154 Y240.78
M204 S1000
M205 X8 Y8
G1 F2700 X110.22 Y225.846 E105.90116
M204 S3000
M205 X10 Y10
G0 F6000 X110.22 Y225.054
M204 S1000
M205 X8 Y8
G1 F2700 X125.946 Y240.78 E107.08172
M204 S3000
M205 X10 Y10
G0 F6000 X126.738 Y240.78
M204 S1000
M205 X8 Y8
G1 F2700 X110.22 Y224.262 E108.32174
M204 S3000
M205 X10 Y10
G0 F6000 X110.22 Y223.47
M204 S1000
M205 X8 Y8
G1 F2700 X127.53 Y240.78 E109.62122
M204 S3000
M205 X10 Y10
G0 F6000 X128.321 Y240.78
M204 S1000
M205 X8 Y8
G1 F2700 X110.22 Y222.678 E110.98012
M204 S3000
M205 X10 Y10
G0 F6000 X110.22 Y221.886
M204 S1000
M205 X8 Y8
G1 F2700 X129.113 Y240.78 E112.39847
M204 S3000
M205 X10 Y10
G0 F6000 X129.905 Y240.78
M204 S1000
M205 X8 Y8
G1 F2700 X110.22 Y221.094 E113.87628
M204 S3000
M205 X10 Y10
G0 F6000 X110.22 Y220.302
M204 S1000
M205 X8 Y8
G1 F2700 X130.697 Y240.78 E115.41355
M204 S3000
M205 X10 Y10
G0 F6000 X131.489 Y240.78
M204 S1000
M205 X8 Y8
G1 F2700 X110.22 Y219.51 E117.01027
M204 S3000
M205 X10 Y10
G0 F6000 X110.22 Y218.718
M204 S1000
M205 X8 Y8
G1 F2700 X132.281 Y240.78 E118.66645
M204 S3000
M205 X10 Y10
G0 F6000 X133.073 Y240.78
M204 S1000
M205 X8 Y8
G1 F2700 X110.22 Y217.926 E120.38208
M204 S3000
M205 X10 Y10
G0 F6000 X110.22 Y217.134
M204 S1000
M205 X8 Y8
G1 F2700 X133.865 Y240.78 E122.15717
M204 S3000
M205 X10 Y10
G0 F6000 X134.657 Y240.78
M204 S1000
M205 X8 Y8
G1 F2700 X110.22 Y216.342 E123.99172
M204 S3000
M205 X10 Y10
G0 F6000 X110.22 Y215.55
M204 S1000
M205 X8 Y8
G1 F2700 X135.449 Y240.78 E125.88572
M204 S3000
M205 X10 Y10
G0 F6000 X136.241 Y240.78
M204 S1000
M205 X8 Y8
G1 F2700 X110.22 Y214.758 E127.83918
M204 S3000
M205 X10 Y10
G0 F6000 X110.22 Y213.966
M204 S1000
M205 X8 Y8
G1 F2700 X137.033 Y240.78 E129.85209
M204 S3000
M205 X10 Y10
G0 F6000 X137.825 Y240.78
M204 S1000
M205 X8 Y8
G1 F2700 X110.22 Y213.174 E131.92446
M204 S3000
M205 X10 Y10
G0 F6000 X110.22 Y212.382
M204 S1000
M205 X8 Y8
G1 F2700 X138.617 Y240.78 E134.05629
M204 S3000
M205 X10 Y10
G0 F6000 X139.409 Y240.78
M204 S1000
M205 X8 Y8
G1 F2700 X110.22 Y211.59 E136.24757
M204 S3000
M205 X10 Y10
G0 F6000 X110.22 Y210.798
M204 S1000
M205 X8 Y8
G1 F2700 X140.201 Y240.78 E138.49831
M204 S3000
M205 X10 Y10
G0 F6000 X140.993 Y240.78
M204 S1000
M205 X8 Y8
G1 F2700 X110.22 Y210.006 E140.80851
M204 S3000
M205 X10 Y10
G0 F6000 X110.22 Y209.215
M204 S1000
M205 X8 Y8
G1 F2700 X141.785 Y240.78 E143.17812
M204 S3000
M205 X10 Y10
G0 F6000 X142.577 Y240.78
M204 S1000
M205 X8 Y8
G1 F2700 X110.22 Y208.423 E145.60719
M204 S3000
M205 X10 Y10
G0 F6000 X110.22 Y207.631
M204 S1000
M205 X8 Y8
G1 F2700 X143.369 Y240.78 E148.09572
M204 S3000
M205 X10 Y10
G0 F6000 X144.161 Y240.78
M204 S1000
M205 X8 Y8
G1 F2700 X110.22 Y206.839 E150.6437
M204 S3000
M205 X10 Y10
G0 F6000 X110.22 Y206.047
M204 S1000
M205 X8 Y8
G1 F2700 X144.953 Y240.78 E153.25114
M204 S3000
M205 X10 Y10
G0 F6000 X145.745 Y240.78
M204 S1000
M205 X8 Y8
G1 F2700 X110.22 Y205.255 E155.91804
M204 S3000
M205 X10 Y10
G0 F6000 X110.22 Y204.463
M204 S1000
M205 X8 Y8
G1 F2700 X146.537 Y240.78 E158.64439
M204 S3000
M205 X10 Y10
G0 F6000 X147.329 Y240.78
M204 S1000
M205 X8 Y8
G1 F2700 X110.22 Y203.671 E161.4302
M204 S3000
M205 X10 Y10
G0 F6000 X110.22 Y202.879
M204 S1000
M205 X8 Y8
G1 F2700 X148.12 Y240.78 E164.27542
M204 S3000
M205 X10 Y10
G0 F6000 X148.912 Y240.78
M204 S1000
M205 X8 Y8
G1 F2700 X110.22 Y202.087 E167.18011
M204 S3000
M205 X10 Y10
G0 F6000 X110.22 Y201.295
M204 S1000
M205 X8 Y8
G1 F2700 X149.704 Y240.78 E170.14425
M204 S3000
M205 X10 Y10
G0 F6000 X150.496 Y240.78
M204 S1000
M205 X8 Y8
G1 F2700 X110.22 Y200.503 E173.16784
M204 S3000
M205 X10 Y10
G0 F6000 X110.22 Y199.711
M204 S1000
M205 X8 Y8
G1 F2700 X151.288 Y240.78 E176.25089
M204 S3000
M205 X10 Y10
G0 F6000 X152.08 Y240.78
M204 S1000
M205 X8 Y8
G1 F2700 X110.22 Y198.919 E179.3934
M204 S3000
M205 X10 Y10
G0 F6000 X110.22 Y198.127
M204 S1000
M205 X8 Y8
G1 F2700 X152.872 Y240.78 E182.59536
M204 S3000
M205 X10 Y10
G0 F6000 X153.664 Y240.78
M204 S1000
M205 X8 Y8
G1 F2700 X110.22 Y197.335 E185.85678
M204 S3000
M205 X10 Y10
G0 F6000 X110.22 Y196.543
M204 S1000
M205 X8 Y8
G1 F2700 X154.456 Y240.78 E189.17766
M204 S3000
M205 X10 Y10
G0 F6000 X155.248 Y240.78
M204 S1000
M205 X8 Y8
G1 F2700 X110.22 Y195.751 E192.55799
M204 S3000
M205 X10 Y10
G0 F6000 X110.22 Y194.959
M204 S1000
M205 X8 Y8
G1 F2700 X156.04 Y240.78 E195.99778
M204 S3000
M205 X10 Y10
G0 F6000 X156.832 Y240.78
M204 S1000
M205 X8 Y8
G1 F2700 X110.22 Y194.167 E199.49702
M204 S3000
M205 X10 Y10
G0 F6000 X110.22 Y193.375
M204 S1000
M205 X8 Y8
G1 F2700 X157.624 Y240.78 E203.05572
M204 S3000
M205 X10 Y10
G0 F6000 X158.416 Y240.78
M204 S1000
M205 X8 Y8
G1 F2700 X110.22 Y192.583 E206.67388
M204 S3000
M205 X10 Y10
G0 F6000 X110.22 Y191.791
M204 S1000
M205 X8 Y8
G1 F2700 X159.208 Y240.78 E210.35149
M204 S3000
M205 X10 Y10
G0 F6000 X160 Y240.78
M204 S1000
M205 X8 Y8
G1 F2700 X110.22 Y190.999 E214.08856
M204 S3000
M205 X10 Y10
G0 F6000 X110.22 Y190.207
M204 S1000
M205 X8 Y8
G1 F2700 X160.792 Y240.78 E217.88509
M204 S3000
M205 X10 Y10
G0 F6000 X161.584 Y240.78
M204 S1000
M205 X8 Y8
G1 F2700 X110.22 Y189.416 E221.74103
M204 S3000
M205 X10 Y10
G0 F6000 X110.22 Y188.624
M204 S1000
M205 X8 Y8
G1 F2700 X162.376 Y240.78 E225.65643
M204 S3000
M205 X10 Y10
G0 F6000 X163.168 Y240.78
M204 S1000
M205 X8 Y8
G1 F2700 X110.22 Y187.832 E229.63129
M204 S3000
M205 X10 Y10
G0 F6000 X110.22 Y187.04
M204 S1000
M205 X8 Y8
G1 F2700 X163.96 Y240.78 E233.6656
M204 S3000
M205 X10 Y10
G0 F6000 X164.752 Y240.78
M204 S1000
M205 X8 Y8
G1 F2700 X110.22 Y186.248 E237.75937
M204 S3000
M205 X10 Y10
G0 F6000 X110.22 Y185.456
M204 S1000
M205 X8 Y8
G1 F2700 X165.544 Y240.78 E241.9126
M204 S3000
M205 X10 Y10
G0 F6000 X166.336 Y240.78
M204 S1000
M205 X8 Y8
G1 F2700 X110.22 Y184.664 E246.12528
M204 S3000
M205 X10 Y10
G0 F6000 X110.22 Y183.872
M204 S1000
M205 X8 Y8
G1 F2700 X167.128 Y240.78 E250.39742
M204 S3000
M205 X10 Y10
G0 F6000 X167.919 Y240.78
M204 S1000
M205 X8 Y8
G1 F2700 X110.22 Y183.08 E254.72897
M204 S3000
M205 X10 Y10
G0 F6000 X110.22 Y182.288
M204 S1000
M205 X8 Y8
G1 F2700 X168.711 Y240.78 E259.11998
M204 S3000
M205 X10 Y10
G0 F6000 X169.503 Y240.78
M204 S1000
M205 X8 Y8
G1 F2700 X110.22 Y181.496 E263.57045
M204 S3000
M205 X10 Y10
G0 F6000 X110.22 Y180.704
M204 S1000
M205 X8 Y8
G1 F2700 X170.295 Y240.78 E268.08038
M204 S3000
M205 X10 Y10
G0 F6000 X171.087 Y240.78
M204 S1000
M205 X8 Y8
G1 F2700 X110.22 Y179.912 E272.64976
M204 S3000
M205 X10 Y10
G0 F6000 X110.22 Y179.12
M204 S1000
M205 X8 Y8
G1 F2700 X171.879 Y240.78 E277.27859
M204 S3000
M205 X10 Y10
G0 F6000 X172.671 Y240.78
M204 S1000
M205 X8 Y8
G1 F2700 X110.22 Y178.328 E281.96689
M204 S3000
M205 X10 Y10
G0 F6000 X110.22 Y177.536
M204 S1000
M205 X8 Y8
G1 F2700 X173.463 Y240.78 E286.71464
M204 S3000
M205 X10 Y10
G0 F6000 X174.255 Y240.78
M204 S1000
M205 X8 Y8
G1 F2700 X110.22 Y176.744 E291.52184
M204 S3000
M205 X10 Y10
G0 F6000 X110.22 Y175.952
M204 S1000
M205 X8 Y8
G1 F2700 X175.047 Y240.78 E296.3885
M204 S3000
M205 X10 Y10
G0 F6000 X175.839 Y240.78
M204 S1000
M205 X8 Y8
G1 F2700 X110.22 Y175.16 E301.31462
M204 S3000
M205 X10 Y10
G0 F6000 X110.22 Y174.368
M204 S1000
M205 X8 Y8
G1 F2700 X176.631 Y240.78 E306.3002
M204 S3000
M205 X10 Y10
G0 F6000 X177.423 Y240.78
M204 S1000
