;FLAVOR:Marlin
;TIME:13010
;Filament used: 19.1396m
;Layer height: 0.2
;MINX:129.72
;MINY:156.22
;MINZ:0.2
;MAXX:307.28
;MAXY:245.78
;MAXZ:24
;TARGET_MACHINE.NAME:Anycubic Kobra Max
;Generated with Cura_SteamEngine 5.9.0
M140 S60
M105
M190 S60
M104 S195
M105
M109 S195
M82 ;absolute extrusion mode
G28 ;Home
G1 Z15.0 F1200 ;Move the platform down 15mm
;Prime the extruder
G92 E0
G1 F200 E3
G92 E0
G92 E0
G92 E0
G1 F2400 E-6
;LAYER_COUNT:120
;LAYER:0
M107
M204 S3000
M205 X10 Y10
G1 F1200 Z0.275
G0 F6000 X303.28 Y245.626 Z0.275
M204 S1000
M205 X8 Y8
;TYPE:SKIRT
G1 F1200 Z0.2
G1 F2400 E0
G1 X302.485 Y245.766 E0.04285
G1 X301.537 Y245.78 E0.09318
G1 X230.451 Y245.78 E3.86665
G1 X229.611 Y245.768 E3.91124
G1 X227.625 Y245.568 E4.0172
G1 X224.899 Y245.345 E4.16239
G1 X222.188 Y245.199 E4.30651
G1 X219.44 Y245.129 E4.45243
G1 X216.691 Y245.138 E4.59835
G1 X213.979 Y245.222 E4.74238
G1 X211.268 Y245.384 E4.88655
G1 X207.311 Y245.756 E5.09752
G1 X206.797 Y245.778 E5.12483
G1 X135.454 Y245.78 E8.91195
G1 X134.786 Y245.771 E8.94741
G1 X133.939 Y245.672 E8.99268
G1 X133.151 Y245.432 E9.0364
G1 X132.387 Y245.056 E9.0816
G1 X131.947 Y244.795 E9.10876
G1 X131.527 Y244.443 E9.13785
G1 X131.09 Y244.01 E9.17051
G1 X130.756 Y243.622 E9.19768
G1 X130.484 Y243.184 E9.22505
G1 X130.195 Y242.624 E9.2585
G1 X129.997 Y242.152 E9.28567
G1 X129.871 Y241.639 E9.31372
G1 X129.771 Y241.015 E9.34726
G1 X129.722 Y240.493 E9.37509
G1 X129.72 Y161.94 E13.54494
G1 X129.729 Y161.285 E13.57971
G1 X129.827 Y160.44 E13.62486
G1 X130.068 Y159.648 E13.66881
G1 X130.446 Y158.883 E13.71411
G1 X130.708 Y158.443 E13.74129
G1 X131.057 Y158.027 E13.77011
G1 X131.49 Y157.59 E13.80277
G1 X131.878 Y157.256 E13.82995
G1 X132.316 Y156.984 E13.85731
G1 X132.876 Y156.695 E13.89077
G1 X133.348 Y156.497 E13.91794
G1 X133.859 Y156.372 E13.94586
G1 X134.48 Y156.272 E13.97925
G1 X134.995 Y156.222 E14.00672
G1 X206.553 Y156.22 E17.80524
G1 X207.398 Y156.233 E17.8501
G1 X208.95 Y156.387 E17.93289
G1 X211.656 Y156.616 E18.07705
G1 X214.407 Y156.772 E18.22332
G1 X217.152 Y156.849 E18.36909
G1 X219.866 Y156.849 E18.51316
G1 X222.615 Y156.77 E18.65914
G1 X225.354 Y156.615 E18.80477
G1 X228.234 Y156.368 E18.95821
G1 X229.574 Y156.233 E19.0297
G1 X230.464 Y156.22 E19.07695
G1 X301.55 Y156.22 E22.85042
G1 X302.234 Y156.23 E22.88673
G1 X303.101 Y156.333 E22.93308
G1 X304.006 Y156.619 E22.98346
G1 X304.751 Y156.997 E23.02781
G1 X305.427 Y157.488 E23.07216
G1 X306.011 Y158.075 E23.11611
G1 X306.494 Y158.738 E23.15966
G1 X306.804 Y159.343 E23.19574
G1 X307.127 Y160.225 E23.2456
G1 X307.266 Y161.012 E23.28803
G1 X307.28 Y161.935 E23.33703
G1 X307.28 Y240.05 E27.48362
G1 X307.27 Y240.734 E27.51993
G1 X307.191 Y241.4 E27.55553
G1 X306.921 Y242.404 E27.61072
G1 X306.511 Y243.234 E27.65986
G1 X306.029 Y243.906 E27.70376
G1 X305.43 Y244.508 E27.74884
G1 X304.765 Y244.993 E27.79253
G1 X304.171 Y245.298 E27.82798
G1 X303.28 Y245.626 E27.87838
M204 S3000
M205 X10 Y10
G1 F2400 E21.87838
G1 F1200 Z0.275
G0 F6000 X201.756 Y223.256 Z0.275
M204 S1000
M205 X8 Y8
G1 F1200 Z0.2
G1 F2400 E27.87838
G1 X192.744 Y223.256 E28.35677
G1 X192.744 Y219.744 E28.54319
G1 X201.756 Y219.744 E29.02158
G1 X201.756 Y223.256 E29.20801
M204 S3000
M205 X10 Y10
G0 F6000 X202.316 Y223.816
M204 S1000
M205 X8 Y8
G1 F2400 X192.184 Y223.816 E29.74585
G1 X192.184 Y219.184 E29.99173
G1 X202.316 Y219.184 E30.52957
G1 X202.316 Y223.816 E30.77545
M204 S3000
M205 X10 Y10
G0 F6000 X202.876 Y224.376
M204 S1000
M205 X8 Y8
G1 F2400 X191.624 Y224.376 E31.37274
G1 X191.624 Y218.624 E31.67807
G1 X202.876 Y218.624 E32.27537
G1 X202.876 Y224.376 E32.5807
M204 S3000
M205 X10 Y10
G1 F2400 E26.5807
G0 F6000 X201.276 Y222.776
M204 S1000
M205 X8 Y8
;TYPE:SUPPORT
G1 F2400 E32.5807
G1 F3780 X193.224 Y222.776 E32.886
G1 X193.224 Y220.224 E32.98277
G1 X201.276 Y220.224 E33.28807
G1 X201.276 Y222.776 E33.38483
M204 S3000
M205 X10 Y10
G0 F6000 X200.025 Y222.616
M204 S1000
M205 X8 Y8
G1 F2700 X200.025 Y220.384 E33.50332
M204 S3000
M205 X10 Y10
G0 F6000 X201.116 Y221.361
M204 S1000
M205 X8 Y8
G1 F2700 X193.384 Y221.361 E33.91375
M204 S3000
M205 X10 Y10
G1 F2400 E27.91375
G0 F6000 X194.691 Y220.384
M204 S1000
M205 X8 Y8
G1 F2400 E33.91375
G1 F2700 X194.691 Y222.616 E34.03224
M204 S3000
M205 X10 Y10
G1 F2400 E28.03224
G0 F6000 X197.358 Y222.616
M204 S1000
M205 X8 Y8
G1 F2400 E34.03224
G1 F2700 X197.358 Y220.384 E34.15072
M204 S3000
M205 X10 Y10
G1 F2400 E28.15072
;MESH:auto tuner encasing bottom.STL
G0 F6000 X197.358 Y224.691
G0 X197.358 Y225.766
G0 X204.396 Y226.649
M204 S1000
M205 X8 Y8
;TYPE:WALL-INNER
G1 F2400 E34.15072
G1 F2700 X204.034 Y226.756 E34.17076
G1 X190.51 Y226.75 E34.88865
G1 X190.013 Y226.606 E34.91612
G1 X189.712 Y226.402 E34.93542
G1 X189.437 Y226.067 E34.95843
G1 X189.319 Y225.811 E34.97339
G1 X189.245 Y225.425 E34.99426
G1 X189.249 Y217.52 E35.41388
G1 X189.309 Y217.219 E35.43017
G1 X189.467 Y216.884 E35.44983
G1 X189.844 Y216.494 E35.47863
G1 X190.2 Y216.315 E35.49978
G1 X190.584 Y216.245 E35.5205
G1 X204.035 Y216.244 E36.23452
G1 X204.395 Y216.351 E36.25446
G1 X204.696 Y216.524 E36.27289
G1 X204.977 Y216.803 E36.29391
G1 X205.181 Y217.189 E36.31708
G1 X205.256 Y217.644 E36.34156
G1 X205.256 Y225.521 E36.7597
G1 X205.181 Y225.81 E36.77555
G1 X204.977 Y226.196 E36.79872
G1 X204.696 Y226.476 E36.81978
G1 X204.396 Y226.649 E36.83816
M204 S3000
M205 X10 Y10
G0 F6000 X204.36 Y226.028
M204 S1000
M205 X8 Y8
G1 F2700 X203.964 Y226.196 E36.861
G1 X190.564 Y226.193 E37.57231
G1 X190.2 Y226.07 E37.59271
G1 X189.991 Y225.886 E37.60749
G1 X189.868 Y225.68 E37.62022
G1 X189.804 Y225.453 E37.63274
G1 X189.805 Y217.593 E38.04998
G1 X189.884 Y217.284 E38.06691
G1 X190.1 Y217.003 E38.08572
G1 X190.312 Y216.871 E38.09898
G1 X190.574 Y216.806 E38.11331
G1 X203.964 Y216.804 E38.82409
G1 X204.36 Y216.972 E38.84693
G1 X204.529 Y217.139 E38.85954
G1 X204.651 Y217.371 E38.87345
G1 X204.696 Y217.644 E38.88814
G1 X204.696 Y225.454 E39.30272
G1 X204.529 Y225.86 E39.32602
G1 X204.36 Y226.028 E39.33867
M204 S3000
M205 X10 Y10
G0 F6000 X204.36 Y226.266
G0 X206.89 Y241.1
M204 S1000
M205 X8 Y8
G1 F2700 X207.178 Y241.052 E39.35417
G1 X207.341 Y240.97 E39.36386
G1 X207.472 Y240.839 E39.37369
G1 X207.6 Y240.54 E39.39096
G1 X207.6 Y161.606 E43.58102
G1 X207.553 Y161.318 E43.59651
G1 X207.472 Y161.158 E43.60603
G1 X207.339 Y161.026 E43.61598
G1 X207.046 Y160.9 E43.63291
G1 X135.101 Y160.9 E47.45198
G1 X134.818 Y160.945 E47.46719
G1 X134.658 Y161.026 E47.47671
G1 X134.525 Y161.159 E47.4867
G1 X134.4 Y161.452 E47.5036
G1 X134.4 Y240.394 E51.6941
G1 X134.445 Y240.675 E51.7092
G1 X134.53 Y240.842 E51.71915
G1 X134.66 Y240.973 E51.72895
G1 X134.958 Y241.1 E51.74614
G1 X206.89 Y241.1 E55.56452
M204 S3000
M205 X10 Y10
G0 F6000 X207.353 Y241.591
M204 S1000
M205 X8 Y8
G1 F2700 X207.673 Y241.43 E55.58354
G1 X207.931 Y241.172 E55.60291
G1 X208.106 Y240.827 E55.62344
G1 X208.16 Y240.607 E55.63547
G1 X208.16 Y161.561 E59.83148
G1 X208.092 Y161.143 E59.85396
G1 X207.931 Y160.825 E59.87288
G1 X207.672 Y160.568 E59.89225
G1 X207.327 Y160.391 E59.91283
G1 X207.111 Y160.34 E59.92461
G1 X135.058 Y160.34 E63.74941
G1 X134.643 Y160.405 E63.77171
G1 X134.325 Y160.568 E63.79068
G1 X134.067 Y160.825 E63.81001
G1 X133.891 Y161.168 E63.83048
G1 X133.84 Y161.388 E63.84246
G1 X133.84 Y240.438 E68.03869
G1 X133.906 Y240.85 E68.06084
G1 X134.07 Y241.174 E68.08012
G1 X134.326 Y241.432 E68.09941
G1 X134.669 Y241.606 E68.11982
G1 X134.892 Y241.66 E68.132
G1 X206.935 Y241.66 E71.95628
G1 X207.353 Y241.591 E71.97876
M204 S3000
M205 X10 Y10
G0 F6000 X207.528 Y242.13
M204 S1000
M205 X8 Y8
;TYPE:WALL-OUTER
G1 F2700 X208.005 Y241.89 E72.00711
G1 X208.39 Y241.505 E72.03601
G1 X208.635 Y241.022 E72.06476
G1 X208.72 Y240.674 E72.08378
G1 X208.72 Y161.515 E76.28579
G1 X208.63 Y160.968 E76.31522
G1 X208.39 Y160.491 E76.34356
G1 X208.005 Y160.11 E76.37231
G1 X207.522 Y159.861 E76.40116
G1 X207.175 Y159.78 E76.42007
G1 X135.014 Y159.78 E80.25061
G1 X134.468 Y159.866 E80.27995
G1 X133.991 Y160.11 E80.30839
G1 X133.609 Y160.491 E80.33703
G1 X133.361 Y160.974 E80.36585
G1 X133.28 Y161.324 E80.38492
G1 X133.28 Y240.482 E84.58688
G1 X133.366 Y241.024 E84.61601
G1 X133.61 Y241.506 E84.64469
G1 X133.992 Y241.89 E84.67344
G1 X134.474 Y242.135 E84.70214
G1 X134.826 Y242.22 E84.72136
G1 X206.981 Y242.22 E88.55158
G1 X207.528 Y242.13 E88.58101
M204 S3000
M205 X10 Y10
G0 F6000 X207.706 Y242.041
G0 X207.422 Y241.481
G0 X204.766 Y225.524
G0 X204.081 Y225.524
M204 S1000
M205 X8 Y8
G1 F2700 X203.907 Y225.632 E88.59188
G1 X190.617 Y225.635 E89.29735
G1 X190.517 Y225.606 E89.30288
G1 X190.37 Y225.415 E89.31568
G1 X190.366 Y217.604 E89.73031
G1 X190.467 Y217.426 E89.74117
G1 X190.62 Y217.364 E89.74994
G1 X203.907 Y217.368 E90.45525
G1 X204.024 Y217.42 E90.46205
G1 X204.136 Y217.574 E90.47216
G1 X204.132 Y225.405 E90.88785
G1 X204.081 Y225.524 E90.89472
M204 S3000
M205 X10 Y10
G0 F6000 X203.912 Y225.629
G0 X203.912 Y226.266
G0 X207.06 Y240.445
M204 S1000
M205 X8 Y8
;TYPE:SKIN
G1 F2700 X206.968 Y240.56 E90.90254
G1 X135.049 Y240.56 E94.72023
G1 X134.94 Y240.467 E94.72784
G1 X134.94 Y161.541 E98.91748
G1 X135.026 Y161.44 E98.92452
G1 X206.955 Y161.44 E102.74274
G1 X207.06 Y161.53 E102.75008
G1 X207.06 Y240.445 E106.93914
M204 S3000
M205 X10 Y10
G0 F6000 X204.632 Y227.131
M204 S1000
M205 X8 Y8
G1 F2700 X205.045 Y226.884 E106.96468
G1 X205.412 Y226.522 E106.99205
G1 X205.676 Y226.019 E107.0222
G1 X205.793 Y225.601 E107.04525
G1 X205.796 Y217.644 E107.46763
G1 X205.693 Y217.012 E107.50162
G1 X205.433 Y216.514 E107.53144
G1 X205.049 Y216.116 E107.5608
G1 X204.633 Y215.865 E107.58659
G1 X204.238 Y215.743 E107.60853
G1 X203.874 Y215.705 E107.62796
G1 X190.546 Y215.705 E108.33545
G1 X190.148 Y215.767 E108.35684
G1 X189.884 Y215.855 E108.37161
G1 X189.479 Y216.089 E108.39644
G1 X189.095 Y216.468 E108.42508
G1 X188.819 Y216.971 E108.45553
G1 X188.708 Y217.494 E108.48391
G1 X188.704 Y225.449 E108.90619
G1 X188.801 Y225.966 E108.93411
G1 X188.967 Y226.334 E108.95554
G1 X189.344 Y226.801 E108.9874
G1 X189.938 Y227.165 E109.02438
G1 X190.5 Y227.295 E109.05501
G1 X203.877 Y227.295 E109.7651
G1 X204.189 Y227.263 E109.78175
G1 X204.632 Y227.131 E109.80629
M204 S3000
M205 X10 Y10
G0 F6000 X206.07 Y161.72
M204 S1000
M205 X8 Y8
G1 F2700 X206.78 Y162.43 E109.85959
M204 S3000
M205 X10 Y10
G0 F6000 X206.78 Y163.222
M204 S1000
M205 X8 Y8
G1 F2700 X205.278 Y161.72 E109.97234
M204 S3000
M205 X10 Y10
G0 F6000 X204.486 Y161.72
M204 S1000
M205 X8 Y8
G1 F2700 X206.78 Y164.014 E110.14455
M204 S3000
M205 X10 Y10
G0 F6000 X206.78 Y164.806
M204 S1000
M205 X8 Y8
G1 F2700 X203.694 Y161.72 E110.37622
M204 S3000
M205 X10 Y10
G0 F6000 X202.902 Y161.72
M204 S1000
M205 X8 Y8
G1 F2700 X206.78 Y165.598 E110.66735
M204 S3000
M205 X10 Y10
G0 F6000 X206.78 Y166.39
M204 S1000
M205 X8 Y8
G1 F2700 X202.11 Y161.72 E111.01793
M204 S3000
M205 X10 Y10
G0 F6000 X201.318 Y161.72
M204 S1000
M205 X8 Y8
G1 F2700 X206.78 Y167.182 E111.42797
M204 S3000
M205 X10 Y10
G0 F6000 X206.78 Y167.974
M204 S1000
M205 X8 Y8
G1 F2700 X200.526 Y161.72 E111.89746
M204 S3000
M205 X10 Y10
G0 F6000 X199.734 Y161.72
M204 S1000
M205 X8 Y8
G1 F2700 X206.78 Y168.766 E112.42641
M204 S3000
M205 X10 Y10
G0 F6000 X206.78 Y169.558
M204 S1000
M205 X8 Y8
G1 F2700 X198.942 Y161.72 E113.01482
M204 S3000
M205 X10 Y10
G0 F6000 X198.15 Y161.72
M204 S1000
M205 X8 Y8
G1 F2700 X206.78 Y170.35 E113.66268
M204 S3000
M205 X10 Y10
G0 F6000 X206.78 Y171.142
M204 S1000
M205 X8 Y8
G1 F2700 X197.358 Y161.72 E114.37
M204 S3000
M205 X10 Y10
G0 F6000 X196.566 Y161.72
M204 S1000
M205 X8 Y8
G1 F2700 X206.78 Y171.934 E115.13677
M204 S3000
M205 X10 Y10
G0 F6000 X206.78 Y172.726
M204 S1000
M205 X8 Y8
G1 F2700 X195.775 Y161.72 E115.96297
M204 S3000
M205 X10 Y10
G0 F6000 X194.983 Y161.72
M204 S1000
M205 X8 Y8
G1 F2700 X206.78 Y173.518 E116.84862
M204 S3000
M205 X10 Y10
G0 F6000 X206.78 Y174.31
M204 S1000
M205 X8 Y8
G1 F2700 X194.191 Y161.72 E117.79372
M204 S3000
M205 X10 Y10
G0 F6000 X193.399 Y161.72
M204 S1000
M205 X8 Y8
G1 F2700 X206.78 Y175.102 E118.79828
M204 S3000
M205 X10 Y10
G0 F6000 X206.78 Y175.894
M204 S1000
M205 X8 Y8
G1 F2700 X192.607 Y161.72 E119.8623
M204 S3000
M205 X10 Y10
G0 F6000 X191.815 Y161.72
M204 S1000
M205 X8 Y8
G1 F2700 X206.78 Y176.685 E120.98574
M204 S3000
M205 X10 Y10
G0 F6000 X206.78 Y177.477
M204 S1000
M205 X8 Y8
G1 F2700 X191.023 Y161.72 E122.16863
M204 S3000
M205 X10 Y10
G0 F6000 X190.231 Y161.72
M204 S1000
M205 X8 Y8
G1 F2700 X206.78 Y178.269 E123.41098
M204 S3000
M205 X10 Y10
G0 F6000 X206.78 Y179.061
M204 S1000
M205 X8 Y8
G1 F2700 X189.439 Y161.72 E124.71279
M204 S3000
M205 X10 Y10
G0 F6000 X188.647 Y161.72
M204 S1000
M205 X8 Y8
G1 F2700 X206.78 Y179.853 E126.07405
M204 S3000
M205 X10 Y10
G0 F6000 X206.78 Y180.645
M204 S1000
M205 X8 Y8
G1 F2700 X187.855 Y161.72 E127.49476
M204 S3000
M205 X10 Y10
G0 F6000 X187.063 Y161.72
M204 S1000
M205 X8 Y8
G1 F2700 X206.78 Y181.437 E128.97494
M204 S3000
M205 X10 Y10
G0 F6000 X206.78 Y182.229
M204 S1000
M205 X8 Y8
G1 F2700 X186.271 Y161.72 E130.51457
M204 S3000
M205 X10 Y10
G0 F6000 X185.479 Y161.72
M204 S1000
M205 X8 Y8
G1 F2700 X206.78 Y183.021 E132.11365
M204 S3000
M205 X10 Y10
G0 F6000 X206.78 Y183.813
M204 S1000
M205 X8 Y8
G1 F2700 X184.687 Y161.72 E133.7722
M204 S3000
M205 X10 Y10
G0 F6000 X183.895 Y161.72
M204 S1000
M205 X8 Y8
G1 F2700 X206.78 Y184.605 E135.4902
M204 S3000
M205 X10 Y10
G0 F6000 X206.78 Y185.397
M204 S1000
M205 X8 Y8
G1 F2700 X183.103 Y161.72 E137.26765
M204 S3000
M205 X10 Y10
G0 F6000 X182.311 Y161.72
M204 S1000
M205 X8 Y8
G1 F2700 X206.78 Y186.189 E139.10456
M204 S3000
M205 X10 Y10
G0 F6000 X206.78 Y186.981
M204 S1000
M205 X8 Y8
G1 F2700 X181.519 Y161.72 E141.00093
M204 S3000
M205 X10 Y10
G0 F6000 X180.727 Y161.72
M204 S1000
M205 X8 Y8
G1 F2700 X206.78 Y187.773 E142.95675
M204 S3000
M205 X10 Y10
G0 F6000 X206.78 Y188.565
M204 S1000
M205 X8 Y8
G1 F2700 X179.935 Y161.72 E144.97203
M204 S3000
M205 X10 Y10
G0 F6000 X179.143 Y161.72
M204 S1000
M205 X8 Y8
G1 F2700 X206.78 Y189.357 E147.04677
M204 S3000
M205 X10 Y10
G0 F6000 X206.78 Y190.149
M204 S1000
M205 X8 Y8
G1 F2700 X178.351 Y161.72 E149.18096
M204 S3000
M205 X10 Y10
G0 F6000 X177.559 Y161.72
M204 S1000
M205 X8 Y8
G1 F2700 X206.78 Y190.941 E151.37461
M204 S3000
M205 X10 Y10
G0 F6000 X206.78 Y191.733
M204 S1000
M205 X8 Y8
G1 F2700 X176.768 Y161.72 E153.62767
M204 S3000
M205 X10 Y10
G0 F6000 X175.976 Y161.72
M204 S1000
M205 X8 Y8
G1 F2700 X206.78 Y192.525 E155.9402
M204 S3000
M205 X10 Y10
G0 F6000 X206.78 Y193.317
M204 S1000
M205 X8 Y8
G1 F2700 X175.184 Y161.72 E158.31218
M204 S3000
M205 X10 Y10
G0 F6000 X174.392 Y161.72
M204 S1000
M205 X8 Y8
G1 F2700 X206.78 Y194.109 E160.74361
M204 S3000
M205 X10 Y10
G0 F6000 X206.78 Y194.901
M204 S1000
M205 X8 Y8
G1 F2700 X173.6 Y161.72 E163.2345
M204 S3000
M205 X10 Y10
G0 F6000 X172.808 Y161.72
M204 S1000
M205 X8 Y8
G1 F2700 X206.78 Y195.693 E165.78485
M204 S3000
M205 X10 Y10
G0 F6000 X206.78 Y196.484
M204 S1000
M205 X8 Y8
G1 F2700 X172.016 Y161.72 E168.39462
M204 S3000
M205 X10 Y10
G0 F6000 X171.224 Y161.72
M204 S1000
M205 X8 Y8
G1 F2700 X206.78 Y197.276 E171.06384
M204 S3000
M205 X10 Y10
G0 F6000 X206.78 Y198.068
M204 S1000
M205 X8 Y8
G1 F2700 X170.432 Y161.72 E173.79252
M204 S3000
M205 X10 Y10
G0 F6000 X169.64 Y161.72
M204 S1000
M205 X8 Y8
G1 F2700 X206.78 Y198.86 E176.58065
M204 S3000
M205 X10 Y10
G0 F6000 X206.78 Y199.652
M204 S1000
M205 X8 Y8
